/* XPM */
static const char *east[] = {
/* columns rows colors chars-per-pixel */
"64 36 253 2 ",
"   c #133C3B",
".  c #1B3B3A",
"X  c #173736",
"o  c #093536",
"O  c #273D3E",
"+  c #0D4838",
"@  c #17483B",
"#  c #095938",
"$  c #14543A",
"%  c #1B5A2D",
"&  c #224539",
"*  c #076C2C",
"=  c #117130",
"-  c #277135",
";  c #194C42",
":  c #175544",
">  c #0E4E46",
",  c #2B5546",
"<  c #196753",
"1  c #12714C",
"2  c #307150",
"3  c #1C7C61",
"4  c #357963",
"5  c #227B69",
"6  c #4D7150",
"7  c #497C6B",
"8  c #6A786F",
"9  c #607A5D",
"0  c #158E36",
"q  c #2D9435",
"w  c #2DA639",
"e  c #46803E",
"r  c #13864A",
"t  c #089749",
"y  c #16855B",
"u  c #0B9555",
"i  c #17955B",
"p  c #0D8A4E",
"a  c #258956",
"s  c #2E9353",
"d  c #11A94F",
"f  c #3AA65D",
"g  c #178764",
"h  c #1A9867",
"j  c #0A9866",
"k  c #248768",
"l  c #3A8667",
"z  c #25976A",
"x  c #2B8972",
"c  c #2C9977",
"v  c #379C7B",
"b  c #32996A",
"n  c #1AA768",
"m  c #16AF6A",
"M  c #26A668",
"N  c #37A66B",
"B  c #39B76D",
"V  c #2BA575",
"C  c #37A678",
"Z  c #2AB275",
"A  c #37B375",
"S  c #28B766",
"D  c #51904F",
"F  c #69864B",
"G  c #7C974B",
"H  c #4DA559",
"J  c #74AB4C",
"K  c #479777",
"L  c #569875",
"P  c #4F8F6F",
"I  c #68946F",
"U  c #59A766",
"Y  c #45AA79",
"T  c #59AB76",
"R  c #48B87B",
"E  c #57B776",
"W  c #4DB76A",
"Q  c #66A979",
"!  c #77B678",
"~  c #68B46F",
"^  c #19C47A",
"/  c #51C16F",
"(  c #72C672",
")  c #5AC15C",
"_  c #A7CA3E",
"`  c #8BAF4E",
"'  c #8DB272",
"]  c #93A36A",
"[  c #95C547",
"{  c #ABC947",
"}  c #8DCA73",
"|  c #A7D678",
" . c #647197",
".. c #369E81",
"X. c #3BA582",
"o. c #39A884",
"O. c #3DB982",
"+. c #539780",
"@. c #6D8D93",
"#. c #46A986",
"$. c #55AB8A",
"%. c #49B685",
"&. c #54B48B",
"*. c #5CB48C",
"=. c #54B986",
"-. c #59B693",
";. c #4CAD92",
":. c #62B78D",
">. c #7ABA87",
",. c #65BA95",
"<. c #6CB78D",
"1. c #6989B5",
"2. c #7789BD",
"3. c #759AB9",
"4. c #6A8FAE",
"5. c #6ABAA6",
"6. c #75BBA8",
"7. c #6AA5B3",
"8. c #76ABB8",
"9. c #6ABBB5",
"0. c #76B9B8",
"q. c #70A7AA",
"w. c #5DA1AD",
"e. c #30C68E",
"r. c #58C489",
"t. c #4FC491",
"y. c #67C989",
"u. c #75C49A",
"i. c #75CB89",
"p. c #6CC1AB",
"a. c #78C5A6",
"s. c #6AC2B7",
"d. c #7DC6B4",
"f. c #73C3BA",
"g. c #7AC7B8",
"h. c #7D91C0",
"j. c #7BC8C0",
"k. c #8CB691",
"l. c #8B94B6",
"z. c #86A3BA",
"x. c #82B7BD",
"c. c #93B1B0",
"v. c #AEB7BD",
"b. c #F8BEB5",
"n. c #F8B9AB",
"m. c #89C684",
"M. c #95C986",
"N. c #89C99B",
"B. c #98CA99",
"V. c #9AD49A",
"C. c #91D48E",
"Z. c #A6C88B",
"A. c #ABC892",
"S. c #A6D69B",
"D. c #B9D699",
"F. c #AFD18F",
"G. c #85C7A6",
"H. c #96CCA5",
"J. c #98D4A3",
"K. c #83CCBB",
"L. c #88C8B9",
"P. c #95CABC",
"I. c #89D1BB",
"U. c #98D5BB",
"Y. c #8CD1A5",
"T. c #A9D6A4",
"R. c #A5D9BB",
"E. c #B9DAAA",
"W. c #B4E098",
"Q. c #C2D799",
"!. c #C7DBA6",
"~. c #C6D6B8",
"^. c #FEC8A9",
"/. c #E9CABD",
"(. c #F9C9B8",
"). c #FED4BC",
"_. c #FDDBBB",
"`. c #E9D5BB",
"'. c #CFE6AA",
"]. c #FEE4BD",
"[. c #EDE1BD",
"{. c #D6DE91",
"}. c #8B9BC2",
"|. c #8796C2",
" X c #939BC7",
".X c #8A8AC4",
"XX c #89A9C2",
"oX c #93A3C4",
"OX c #99AAC4",
"+X c #89B9C1",
"@X c #98B6C7",
"#X c #96A1D0",
"$X c #A7B9C6",
"%X c #ABB4C8",
"&X c #8CC7C3",
"*X c #94CEC3",
"=X c #99C9C5",
"-X c #9CD3C2",
";X c #94D1C2",
":X c #A7CBC8",
">X c #B7C9CB",
",X c #A4D3C3",
"<X c #ABDCC4",
"1X c #ACD3CC",
"2X c #A8D5C4",
"3X c #B4D4CC",
"4X c #BBDBCE",
"5X c #B7D7CB",
"6X c #B4CDD3",
"7X c #B8D9D4",
"8X c #A9C0D0",
"9X c #B8E2C7",
"0X c #BFE5D4",
"qX c #C4CDC9",
"wX c #D9CEC5",
"eX c #C8D6CB",
"rX c #D7D6C7",
"tX c #C6DAD2",
"yX c #E3CEC4",
"uX c #E9D7C6",
"iX c #FEDDC3",
"pX c #F7D6C7",
"aX c #F8D9CD",
"sX c #C7E8CB",
"dX c #D9E9CA",
"fX c #C1E5D2",
"gX c #C2E9D1",
"hX c #CDECD0",
"jX c #D7EED2",
"kX c #DAF0D2",
"lX c #E9EDCB",
"zX c #FEE3C3",
"xX c #FEEBC5",
"cX c #FEE5CA",
"vX c #FEEBCB",
"bX c #F4E7C9",
"nX c #E8F2CC",
"mX c #FDF1CD",
"MX c #F2F2CE",
"NX c #FEEDD2",
"BX c #FAECD4",
"VX c #E9F1D2",
"CX c #FEF2D4",
"ZX c #FFF5DC",
"AX c #FFF9DD",
"SX c #F6F3D2",
"DX c #E4EFD2",
"FX c #FFF7E0",
"GX c #FFF9E6",
"HX c #FFFAE3",
"JX c #FFFAEA",
"KX c #FFFBED",
"LX c #FFFDEB",
/* pixels */
"0XfXsX9X9XfXfXfXfX9XsXsXsXdX`.[.bXMXMXSXvXcXiX).).).iXcXvXNXZXZXHXGXLXKXKXKXKXKXKXJXKXKXKXKXKXKXKXJXJXGXGXFXFXZXZXZXCXNXcX).(.^.",
"0X0XgXgXgXfXfXgXgXgXgXhXjXkXDXDXVXMXSXBXvXcXiXiXiXcXcXcXNXNXCXZXZXHXJXJXKXKXKXKXKXKXKXKXKXKXKXKXJXJXGXGXHXFXZXZXvXzX).(.^.^.(.).",
"gXgXgXgXgXgXgXsXhXhXjXkXDXVXMXSXvXvXBXvXzXiX).).iXzXcXvXvXvXNXZXCXZXHXGXLXLXKXKXKXKXKXKXKXJXJXJXJXGXGXGXHXCX]._.^.^.^.)._.cXNXNX",
"dXhXhXhXhXhXhXjXkXDXDXVXMXMXvXzXiXzXcXvXvXvXcXcXcXvXcXzXvXNXNXNXCXZXHXHXcXBXLXLXJXJXJXJXGXHXHXGXHXFXZXZXCXCX]._._.zXmXCXCXNXvXvX",
"dXdXnXnXlXlXnXnXMXMXSXSXSXmXvXiX(.).iXvXNXNXNXNXNXNXNXNXNXCXNXvXvXzX(.(.n.n.(.).ZXGXGXGXAXAXHXFXZXAXAXZXCXCXCXmXvXvXmXCXvXvXxXvX",
"nXnXnXMXMXvXvXvXvXvXvXvXcXvXvXcXiX).)._._.zXcXvXvXNXNXCXCXCXCXCXNX).n.(.n.(.(.n.iXGXGXHXHXGXHXHXZXZXAXZXZXCXCXCXvXzX].xXxXxX].].",
"mXmXmXmXmXmXmXvXcXcXcXzXiXiXzXzXzXzX_.iXzXzXzXxXvXvXCXCXCXCXCXZXAXHXHXBXb.pXGXGXFXGXGXGXHXHXHXFXFXZXZXAXZXCXCXCXCXCXmXvXvXxXxXxX",
"xXxXvXvXvXvXvXvXzXcXiXiXiXiXzXcXcXzXzXzXzXxXvXmXmXCXCXCXCXAXAXAXAXAXAX(.b.b.NXGXGXGXFXFXFXAXAXAXAXAXAXAXZXAXAXCXCXCXCXCXmXCXvXxX",
"zXzXzXzXzXvXlXjXhXdXbXzXzXzXzXzXzXzXzXzXxXzXzXxXvXmXCXCXCXcXNXNXNXBXpX/././.pXpXcXGXHXFXZXAXAXAXAXZXZXAXAXNXuXuXuX`.mXmXxXxXxXzX",
"wXwXwX%X%X>X7X7X7X7X7XtXrXdXdXdXdXlXlXwXbXbXbXxXvXvXbXuXuXwXyXyXyX/.`.rXrXrXwX/.pXaXBXGXLXZX(.ZXZX(.yXuXuXuXrXrXeXrXuXbXvXvXxX_.",
"$X$XoX.X.X.X}. X#X X X}.}.@X6X6X6X6X%Xz.>XtXqXeXrXeXqXqXqXqXqXqXeXsXsX~.eXqXqXrXuXuX(.aXaXpXb.pXuXwXrXeXqXeXtXtXtXtXqXqXqXwX~.v.",
"$XOXoXOXoX}.oXoXOX}..X.X|.oX X}.OX%Xl.l. X%Xc.OX$X$X8X8X>X>X>X>X3X0X9X4XeXtXeXqXqXeXrXyXyXyXrXrXeXeX5X>X>X>X>X$X$X%X$X$X$X$X$Xv.",
"3.z.XX}.l.2.h.h.|.|.|.}.oX|.XX@X1X$XoX}.oX@XOXOXOXOX$X8X3XtXtXtX5X4X5X5X4X4X5X>X>X>XeXeXeXtXtXtX4X3X3X>X>X6X6X$Xz.$X$X$Xc.l.oXOX",
"2.2.1.2.2.2.2.2.2.2.2.XXXXXXXX1X:X@X=X@X@X:X:X8X=X:X1X:X:X3X3X4X4X4X3X1X1X5X4X4X3X:X3X1X:X3X5X5X4X4X3X1X1X:X8Xl.l.@XoXoXz.z.}.}.",
"2.1. .1.3.1.1.3.3.3.3.3.8.8.XX+X&X*X&X+X=X&X&X&X=X=X-X,X,X2X,X5XtX4X4X5X4XfX4X5X:X2X,X:X:X:X:X1X5X5X3X1X5X7Xc.8  .l.@XXXXXXXXXXX",
"1.1.1.1.4.4.4.3.8.x.0.0.8.8.8.8.x.x.x.&X&X&X&X&X&X&X*X-X-X-X-X2X2X<X<X2X,XP.P.=X=X=XP.:XP.,X,X2X<X2X2X2X1X4X5X@.@.+X+X+XXXXXXXz.",
"7.7.7.7.7.7.8.8.8.8.0.g.j.j.j.0.0.0.8.8.8.x.L.L.L.I.I.P.;X;XU.-X,XR.<X<X,XU.U.2X-XP.P.,XP.L.L.L.P.-X*X;X*X&X*X3.q.*X&X&X&X&X+X+X",
"0.9.9.s.s.s.9.f.f.0.0.f.f.f.0.0.0.0.0.9.0.9.9.g.g.K.K.K.I.U.-X<X<X<X9X9XR.R.R.R.R.<X<X2X-XK.0.g.L.-X,X-X-X<XU.@.L.&X*X*X*X*X*X*X",
"w.9.9.g.s.s.s.s.s.g.g.K.f.9.f.9.K.U.U.U.I.K.K.K.g.K.K.d.U.<XU.6.L.U.L.6.5.P.P.6.-.6.G.G.6.d.L.L.L.L.I.,X<X<XL.q.K.g.K.K.K.&X;X&X",
"5.5.9.5.5.s.f.j.f.9.p.d.d.d.6.6.U.R.I.a.6.a.U.I.g.K.K.5.5.5.5.,.6.G.,.k.k.H.H.H.6.5.6.5.6.G.G.G.a.5.p.p.G.L.6.6.d.g.f.f.g.K.;XK.",
"5.p.-.5.6.a.d.d.a.-.%.;.#.%.&.,.,.-.&.;.o.C %.;.o.&.&.&.-.#.&.#.&.,.6.'.!.T.!.B.5.E.'.~.G.a.H.T.T.H.G.Y.G.N.H.P.G.d.g.g.5.5.K.I.",
"X.X.o.%.r.y.y.r.t.r.*.#.#.#.#.r.o...X.o.c X...c ..v v X.#.C C #.$...#.v #.A.E.!.B.:.H.~.T.Y.E.Q.S.T.E.T.N.Y.J.J.G.a.a.a.G.G.d.d.",
"#.#.#.;.#.%.#.X.o.%.K #.*.X...C Z #.X.c c $.-.X.&.-.-.-.C c c v C C v c r q H U a g K B.T.!.E.!.E.V.S.S.D.!.!.T.V.Y.V.S.V.B.V.J.",
"r.-.#.O.O.o.X.C %.:.$.$.o.X.C v V Y $.#.$.-.*.#.-.;.O.%.&.o.o.#.=.v z = * # * * # x E i.C.B.B.S.D.D.D.S.S.S.S.S.Q.N.u.N.u.u.N.N.",
"%.X...X.&.&.&.#.Y Y C v V %.$.$.$.*.:.:.*.*.*.%.=.#.c #.r.t.t.-.:.=.1 + > $ : : $ 1 0 w m.B.>.m.M.F.{.Z.B.A.C.C.W.!.i.i.N.S.S.V.",
"Z C V %.G.$.#.C V n C #.$.*.*.*.%.=.*.*.:.=.C M m Z V A A ^ e.-.*.W 1 ; ; @ $ + $ + # * H } C.m.M.M.F.A.A.A.F.S.'.S.g g z :.N.J.",
"Z o.#.,.u.#.V C #.#.&.*.=.=.*.%.C %.*.*.=.V h k k z h h j m u.=.d = $ $ O ; + @ @ $ @ + # = } Q.F.>.Z.M.m.~ Z.D.C.C.>.v 5 k k y.",
"C A Y.I.u.<Xt.m R =.*.*.*.=.=.=.=.=.=.R c h z h n c x x x Z R 2 # $ $ ; , - @ ; : : + , 2 D | ' s s ! M.M.M.~ ( S.'.'.m.E ( K L ",
"3 i Y M ,.U.C h n m Z %.=.=.E =.=.R E y.C h d d d z z V m n h : . @ $ 2 s = = q U I 2 q ' | | ~ < > 2 } Q ! ' ! C.D.F.B.i.T K L ",
"< < 1 y H.Y t r y z h A =.R %.R r.r.i.Y g 3 3 y y k k h m V Q ' - = $     @ $ % - D J D D U ` ' I I ' | } ! k.! T Q Q >.Q K L K ",
"3 < : @.c.+.2 1 r i d S V m R %.A S / k 3 k 5 5 b M C g j l 7 2   .     . . . @ + # D ` ` ] ' D a ~ } ( } {.W.( T K T ~ E T v N ",
"< : 7 c.P 7 P 1 t p p u k h A C g g B E N Y k k z i d h k 4 2 2 ; . @ & X X . X .   6 ` ` { [ H s i H W L ' ! H H L Q P L E / B ",
"< < c.c.L c.L 1 1 y k N N A R C M N R R Y Y h u i i y i N 4 7 4 3 < = = $ % @ & @ & F G ` ` { J s D P P P 0 = * * 1 l 4 4 E E T ",
"y n m C K 3 < a f M h B W R B M u u Z N N b g y y u g b Y I P 4 r $   + # * * = - 2 D F ` G J ` J J D 2 4 # o     + : l 4 ~ ! +.",
"z M M M v a 1 t d i z / / s r 0 p u i u d N b k 3 3 M W P L I 9 F - X @ +     + = 2 6 6 6 D D J ` _ { { ` ` 6 . . . X 2 l N ~ ~ ",
"z b M h h 3 1 < 1 s f ) H 1 < 1 p t t p t M N N z M U P L ] ] 6 6 6 2 @ X X X X 2 9 9 9 9 F F G ` [ { { _ { [ e , , : 4 b b n W "
};
