/* XPM */
static const char *west[] = {
/* columns rows colors chars-per-pixel */
"64 64 256 2 ",
"   c #291A0A",
".  c #2F1D12",
"X  c #2A270D",
"o  c #32230C",
"O  c #38360D",
"+  c #342412",
"@  c #3B2C15",
"#  c #3B2D1C",
"$  c #372818",
"%  c #3D321B",
"&  c #383716",
"*  c #2C3212",
"=  c #3A2E22",
"-  c #352924",
";  c #3D3223",
":  c #3E352A",
">  c #3A3A26",
",  c #3E3634",
"<  c #2B2E21",
"1  c #44331C",
"2  c #49361E",
"3  c #453C1C",
"4  c #4C3A1E",
"5  c #433715",
"6  c #463618",
"7  c #433524",
"8  c #453925",
"9  c #4C3B23",
"0  c #42352A",
"q  c #443A2C",
"w  c #4B3D2B",
"e  c #493626",
"r  c #513E22",
"t  c #573E2C",
"y  c #443C33",
"u  c #483D37",
"i  c #553C35",
"p  c #36470C",
"a  c #2B5B0B",
"s  c #265507",
"d  c #325C0C",
"f  c #3C560E",
"g  c #3B4816",
"h  c #385716",
"j  c #294C0F",
"k  c #2C640A",
"l  c #346A0D",
"z  c #38690B",
"x  c #3D740A",
"c  c #3A6713",
"v  c #3E7211",
"b  c #3A4325",
"n  c #3A4F28",
"m  c #1E4B04",
"M  c #45560C",
"N  c #474919",
"B  c #52491B",
"V  c #475719",
"C  c #55571A",
"Z  c #48500D",
"A  c #43680D",
"S  c #46780B",
"D  c #5B750A",
"F  c #476717",
"G  c #566A17",
"H  c #457213",
"J  c #4B7519",
"K  c #577616",
"L  c #586C05",
"P  c #657A0D",
"I  c #697A16",
"U  c #76781B",
"Y  c #696B16",
"T  c #484528",
"R  c #544224",
"E  c #5A4525",
"W  c #54442C",
"Q  c #5A452A",
"!  c #5D4A2B",
"~  c #584B27",
"^  c #485926",
"/  c #545727",
"(  c #4C4334",
")  c #4B443C",
"_  c #494637",
"`  c #534533",
"'  c #5C4C33",
"]  c #554A3A",
"[  c #5B4D3C",
"{  c #544837",
"}  c #4A5637",
"|  c #5D513D",
" . c #585936",
".. c #624C2B",
"X. c #674C28",
"o. c #6C522D",
"O. c #665428",
"+. c #72552D",
"@. c #634D31",
"#. c #604C3A",
"$. c #635134",
"%. c #64533B",
"&. c #6C593D",
"*. c #695637",
"=. c #745932",
"-. c #7A5D32",
";. c #745B39",
":. c #4A6826",
">. c #546929",
",. c #4E7524",
"<. c #567528",
"1. c #576739",
"2. c #5B7635",
"3. c #4F6635",
"4. c #676726",
"5. c #677927",
"6. c #666838",
"7. c #7B6339",
"8. c #667937",
"9. c #767531",
"0. c #4A3D40",
"q. c #4E4A43",
"w. c #4B4643",
"e. c #524C43",
"r. c #534D4B",
"t. c #594B42",
"y. c #5B5243",
"u. c #55514B",
"i. c #5A544D",
"p. c #595847",
"a. c #5B5653",
"s. c #5D5A54",
"d. c #5E5C59",
"f. c #5A5458",
"g. c #53504E",
"h. c #635543",
"j. c #645C4C",
"k. c #685A46",
"l. c #725E45",
"z. c #635C54",
"x. c #625E5A",
"c. c #605652",
"v. c #5A6743",
"b. c #5D7048",
"n. c #67674A",
"m. c #73634C",
"M. c #796546",
"N. c #677547",
"B. c #6C6354",
"V. c #65625D",
"C. c #6B655C",
"Z. c #6D6A5C",
"A. c #656856",
"S. c #736551",
"D. c #736A5B",
"F. c #786B56",
"G. c #6C7657",
"H. c #767959",
"J. c #74784A",
"K. c #665E61",
"L. c #666462",
"P. c #6A6663",
"I. c #6D6A65",
"U. c #6E6B6A",
"Y. c #6B666A",
"T. c #726C65",
"R. c #726E6B",
"E. c #796C62",
"W. c #737365",
"Q. c #7B7364",
"!. c #75726D",
"~. c #7A756D",
"^. c #7D7A6D",
"/. c #797C64",
"(. c #746E71",
"). c #767471",
"_. c #797672",
"`. c #7D7A75",
"'. c #7E7C79",
"]. c #7B757A",
"[. c #6F746A",
"{. c #83663A",
"}. c #837A2A",
"|. c #86745A",
" X c #8A6F47",
".X c #827B6C",
"XX c #83776A",
"oX c #817D76",
"OX c #817E7A",
"+X c #857973",
"@X c #54890B",
"#X c #528610",
"$X c #6C830C",
"%X c #6C890A",
"&X c #7B970C",
"*X c #678315",
"=X c #748A14",
"-X c #7A9415",
";X c #72890A",
":X c #778A25",
">X c #768637",
",X c #6C892E",
"<X c #5D8225",
"1X c #798744",
"2X c #758357",
"3X c #688243",
"4X c #7A8265",
"5X c #7D8272",
"6X c #869817",
"7X c #899C14",
"8X c #8AA514",
"9X c #91AB11",
"0X c #A6AA1B",
"qX c #B1B61E",
"wX c #ACB01D",
"eX c #889626",
"rX c #949829",
"tX c #898D33",
"yX c #99A32A",
"uX c #A5A824",
"iX c #B0B524",
"pX c #848649",
"aX c #8C8E53",
"sX c #858869",
"dX c #858275",
"fX c #84817C",
"gX c #8C8A7D",
"hX c #898878",
"jX c #938C7B",
"kX c #909575",
"lX c #A5A370",
"zX c #7E7B81",
"xX c #868381",
"cX c #898682",
"vX c #8D8B85",
"bX c #8E8A89",
"nX c #928E8A",
"mX c #928C85",
"MX c #95928D",
"NX c #99958D",
"BX c #989689",
"VX c #969491",
"CX c #999692",
"ZX c #9C9A95",
"AX c #9E9A9B",
"SX c #979894",
"DX c #938E91",
"FX c #A29D9B",
"GX c #A09B99",
"HX c #A4A29D",
"JX c #A3A393",
"KX c #A8A788",
"LX c #A9A6A3",
"PX c #AAA8A5",
"IX c #B1AEAA",
"UX c #B5B3AF",
/* pixels */
"u.q.W ..C.HXHXfX`._.i.Q R !.OXOXfX`.OX`.`._.`.~.s.7 w w XXCXcX~.D.S.rXuXH.+XQ.m.$...=.O.x.fXOX_._.~._.R.q.% E ' V.I.x.i.i.i.s.s.",
"2 9 Q -.%.).OX!.!._.u.Q 2 Z.OX_._.!.!.R.!.~.!.V.q 1 [ vXPXLXFXBX^.G.8.>.,.2X5X`.~.D.&.-.' Y.H.5.!.).x.y + w E.h.# : ; = ; # # 1 ",
"m.%... X=.z.'.I.!.U.e.! r ( !.I.!.!.!.!.!.R.V.y 7 Q.AXIXFXgX2XN.n.A.a.c k l <._.`.`.x.9 Q / %XI V.i.T O  .sXsX4XW   @ 1 @ 9 ` h.",
"'.V.! {.7.D.'.!.P.s.8 $.S.9 y u.i.s.x.s.u.) q @ ` 3.sXGX4X1.p.R.OX`._.n.2.N._.OX_.!.R.z.8 P $XG >.f f 1.b.v.} n >.1 7 w z.fXMXcX",
"_.!.j...-.S.'.!.V.q Q /.b.T.] # # = ; 7 9 9 % 2 % d <.2X1.x.'.fX`.OXfX'.'.OXcXbX_.!.!._.P.4.$XM X > !.VXZXbX`.f.b / 3 N.1XsXVX`.",
"_.!._.y.+.&.`._.Y.` %.H.x n.x.r 9 4 E $.F._.~.( N H c 5.x.`.oX`.`.`.fX`.`.`.OX`.!.I.R.!.U.6.M $ [ vXZXNXcX`._.I.T A I $XP hXxX`.",
"R.R._.P.$.=.oXA.v.y.8 ,.l 3.w.=.F..XdXvXOX).nXT.T H l n._.!.`.`.`.`.`.`._._.).G.1.R.R.).~.G X h.vXCXMXfX_.fX`.<.x S L L H.bX`.OX",
"R.U.~.L.' o.`.V.c ^ N H k p 1 {.m.HXIXVXcX_.OX).u.& A V._.R.!.!.!.R.P.!.R.R.H.H :._._.!.8.* 7 fXZXMXfXoX`.nX,XS @X@XG J.vXOX`.'.",
"!.R._.V.W o._.n.d c B d :.| %.=.o._.NXOX`._.b.W.Y.V O u L.I.I.I.V.x.r.e.q.p.K a F 0.p.<.* + | VXMXfX`._.OXgX3.} j V Q.bXfX`.OX'.",
"!.~._.V.W ..T.v.d j N D.ZXZXOXz.o.y.).U.!.R.:.<.b.V 4.B 0 ) ) y q = % % 7 R c d M Z f * 9 4 ( fXOX_.`._.OXfXR.L.- f sXOX!.`.~.!.",
"!.P.P.x.W O.:X*XA H J 2.kXLXcXP.*.Q ) ) ) r.J k #XuXuXO.+.E 4 r ^ N / F O.}.>.F ^ b % Q =.o.+ u.P.!.!.~._._._.!.w O 2XaXtX(._.R.",
"u 0 7 0 9 I 8X9X%Xk k H BXZXNX'.j.@.Q 9 r 2 G l *X0XU @.M.F.XXmXG.d J c yXrX:.<.1.,. .@.7.-.r + ; ) e.u.V.I.!.V.w % <.iXeXv.3.} ",
"f ~ %.@.2 % N =XI } 8.gXVXvXvXbXxXz.~.Q.D.D.h.N V 1 9 Q.CXHXNXPXsXm c F qX-Xs k z <.T.%.+.|.BXT.e.+ @ 7 # ; : : # 9 g 6XI #X@XS ",
"S v.CXgXz.1 . X & x.bXbX'.`.`.`.OXR.).fXOX`.P.` V # 9 bXIXGXCXMXkX*XD $XrX .h F 2.T._.C.! Q.LXcX_.z.%.=.W ^.^.z.] %.4.M S s x S ",
"[ ZXLXnX'.z.$ O N [ `.`.OXOX`.`.OX!._.~._._.U.y.C @ q nXCXMXvX`.:X7X=X&X*Xd._.fXxX_.!.U.i.~ OX_.s.y 9 =.! nXIXVXMXbX1XL 5.1.3.T ",
"m.CXMXOXoX`.C.; N R z.fX_._.`.OXnXG.n.).R.!.`.e.^ O ` bXMXfX`.OXT.5.6X:X8.} U.bXoX!.!.I.>.V C.I._ $ j.B.4 oXZXMXMXbXsX$X1.].L.] ",
"| ).fX`._.!.~.V.T B e !.R.!.!.R.(.N.H W.).G.Z.c./ O q !.'._.).!.!.U.s.f.T.8.^ u.d.L.R.<Xl F h.d.@ j.xXs.1 Q.nXOX`.`.'.H.n.).P.{ ",
"R y P._.R.I.x.s., & F V p.r.u.u.r.<.k 2.K.:._ u T N + % e.u.r.e.) ) q.u.r.u. .^ ^ ^ } c l B @.i.@ j.'.x.8 T.'._._._.~.R._.`.!.( ",
"..9 ; e.V.u.q @ . M S S S 3 % @ + G l h & d h t 4.K 1 9 7 # @ @ 2 R r 2 e 9 i i R B C j & W $.W 1 ` s.q.9 y.V.I.R.).!.I.V.s.q.q ",
"@.o.E % 7 # @ 9 % S c H g g V V V F x g  .d d I 6X=XT.fX_.!.Z.j.h.{. XdXZXBX2X8.J k H M . E ! e 2 3 % q @.R 7 ) ) : $ $ ; 8 7 ' ",
"~.B.7.7.Q r m.fXA.>   ) OXnXcX_.P.s.} } ,Xc K 9X;XpXIXHXnXOXOXfXI.M. XPXIXFXhX,.l x >.N.V + # T  .^.dX_.[ 1 7 1 + q y.C.^.oX^.V.",
"`._.B.{.+.m.UXvX!.z.R m.IXUXLXGXZXMXxXR.q.h 7XD *XJXLXNXfX`.`._.x.%.M.VXNXMXVXvX2XG.!.`.H.F   / ZXLXnXR.( 2 !.V.o Z.IXZXMXnX!.L.",
"!._.).z.X.hXLXfX_.a.O.m.ZXCXMXcXOX`.`.OX_.r.V P sXFXnXOX`.OX`.!.V.Q M.VXnXfX`.`.OXOXOXb.} n.p & JXCXfXI.q | nX).0 y.HXNXCXbX!._.",
"!.!.R.a.Q hXMX`._.u.X.F.bXNXfX`.`.`.OX`.~.V.< V OXCXOX`.OXOX_.~.L.@.F.xX`.`.OX~.~.!.W.F :.g.^ * jXvX_.V.8 F.MX).) w MXCXMXOX_._.",
"R.I.!.u.! dXxX_._.s.=.M.).OX_.fX`._.`.`.!.V.T M T.cX`.OX`._.!.~.V.@.+.s.!.!.!.R.!.(.3Xa h } / K >X'.~.z.1 XX5XU.e.@ _.MXOX`.`.!.",
"R.R.!.i.Q T.!.P.L.r.;.{.y.u.T.OX`.OX`.R.R.L.V N C.fXOX_.!.U.!.s.; W {.*.x.V.L.I.R.(.N.s A 9X7X&X1X].T.i.1 Q.3X1.x.o y.fX`.`.!.R.",
"_.U.r.q E ` y 0 7 # X.{...2 C.`.~._._.R.A.>.N 2 h.R.U.P.!._.R.y r +XB.o.W : ; = ; ; ; g G P D :XR.R._.q.2 m.F ^ s.C g W.!.!.!.~.",
"z.y 1 ' k.' %.S.F.S.S.B.k...h.I.L.V.A.1.>.n.e.9 W 0 q.V.L.Y.L.; Q.VX).e.! ! %.| h.h.^ h ^ I eXT.!.~._.y Q 9.a d -X=Xd ` r.i.P.R.",
"; r F.ZXPXHXNXNXMXVXfX].sX9.t _ } V g T e.w.: 9 &.k.W q q : : # h.`.oXC.W *.bXHXnXsXH a F 6XuXpXL.U.L.q @.9.k &X8XK f + + @ 8 y ",
"! F.HXIXFXMXcXfXfXOX~.).pXuX~ f * @ 2 $ @ @ 2 ! jXVXC.=.X.h.B.' R e.U.d.w &.CXHXvX/.F V O G U N 0 0 w 9 O.~ *X9X$X*XG.R.j.[ ' E ",
"! Q.LXCXcXOX`.`.`.`.`.).tX0XK 4.Y rXsXQ.Q.Z.%.r j.~.d...XXLXVXU.$.4 : ; 2 &.NXbX`._._ t l.j.v.>.C V V >.2.6X0X7X$XK sXAXfXfXI.%.",
"! D.BXMXOX`.`.fXfX`._.Y.rX0XeX6X0XlXLXZXCXfXV.; o e.) $.LXHXdX~.~.D.` 2 =.M.fXfXOX_.i.*.gXUXLXMXvX!.V.zXaXuXuXU c m s N.~.`.P.| ",
"! P.aXlX'.`._.nXcX`._.Y.9.7X& 6.KXAXMXCXMX!.I.!.q @ 7 l.HXCXN.N.OXOX!.%.-.M.OXOXOXR.i.! BXLXMXMXnXOXR.dXhXW.n.  >.,X,.2.^.`.L.] ",
"! a.yXwXhX).`._.W.A.A.v.3.1.  c.AXMXCXnXOXR.OXOXV.7 4 m.fXxX,.H _.`.!.i.+.M.OX_.R.R.u.Q oXcXOX`._.!.R.).'.!.r.X ,XdX`.OX`.!.L.{ ",
"..w 4.eXN.v.v.1.1.1.v.p.r.0 @ k.VXCXvX`.`.OXOX_.x.8 % >.OX1Xd c H.!.~.s...m.V.d.d.d.q.E B.R.R.I.P.P.G.N.W.U.w.M %X8.].^._.R.d.( ",
"! *.T N 8 u.s.i.r.r.r.) # $.B [ CXmX`.OXOX`.oX!.d.# 3 d >.8XA c W.(.!.x.$.! w q 0 0 9 -.O.y ) y T J l s j 6.>.C P ;XG.!.!.s.y 9 ",
"&.dXA.j.R q y : 3 3 1 + l.sX$XW MXfX`._.oXcX`.R.s.= B d A 7X%Xh } } q 0 9 ..$.! ....&.;.-.E R R C F H c F &X9XV B G N r.r.= + R ",
"%.hXMXP.W 3 1 # P 6XP U .X:X7XR oXOXW.<._.fX!.!.s.7 %.A -X6XP f Z N 1 2 ' Q.!.( 9 .XR.9 m.gXgXdX+XC.*.G.2.;X&X7XB e 9 1 . o o 2 ",
"' BXGX`._.Q.B.#.B 7X8X$X:X9X-XB _.~.H S !.fXT.!.d.8 _. .C -X6XpXQ.P.B.@.! a.s.7 Q.VXR.7 W.UXHXxXOXV.#.v.T H.tXeXpXQ.Q.D.a.y.w r ",
"! mXMX'.OX`.L.y.-.>.8XU -X8X$X3 _.2.@XS G.xX!._.V.7 y.h.} >X6XyXhX_.`.T.' 1 @ ` gX_.R.0 dXIXMXOX~.d.#./ ^.FXAXDXVXMXOX`.OXfXI.| ",
"' vXcX`.~.I.x.! |.LXfXf.6.;XZ $ K.2.S z A.R.R.).L.0 4 ' 3XZXkXgXbX~.`.OX~.h.E %.U.R.r.$ gXAXnXOX_.a.! 6.CXHXHXNXCXbX`._._.~.P.] ",
"[ fX`.~.R.!.u.R jXUXNXfXOXV.^ V / >.x F ^ :.>.1.e.; W C 2XAXVXcXfX`.`.fXOX_.y.=.h.q.+ 9 MXCXfX`._.i.~ n.ZXNXNXvXfXfX`.OX_.!.P.) ",
"` x.U.!._.R.) R .XZXfX_._.`.R.e.N N ~ R % & * O p ~ y.N /.nXOX`.`.`.OXCX_.!.L.&.=.@ + D.FXnX`.`._.a.N n.MXvXOX`.`.OXOX`._.!.V.( ",
"2 % u z.G.1.& E Q.'.R.U.Y.P.I.P.y.o. X|.m.l.k.` _ v. .N N.'.`.OX`._.OXOXOX_.L.%.7.r { bXnX`.`._._.8.C B.fXOX`.oXOX`.`._.!.!.d.w ",
"j.%.4.A l h # ..z.u.) )  .h y : ; E F.SXCXcXfXfXOXR.b g >X^.R.~.~.~.!.R.cX_.I.' M.k.9 I.!.V.R.(.pX%X$X>X<.N.R.~.~.!._.OX1.i.w.9 ",
"xXG.a s H ; e R w 9 V f a f $ ] w 2 Q.'.).!.!.R.I.I.r.eXwXrXaXI.Y.L.I.!.!._.U.{ %.A.B 9 u.u., ( &X6X8XK k v } f.!.R.`.hXH T $ F.",
"v.:.z J ^ A.!.r.+ N c d J ] s.!.( N { e.) w.r.q.) , tXqX0XuXG ^ 1. .` 0 : u y w @./ H r ; # 7 C P Z d A G N @ 0 P.!._.2.l p ) '.",
"1.9.wXeX} N.3.1.& V 6XuXwXtXV.x.T S B t Q X.Q R E X.U O.U C . X * p p M Z 1 @ @ 9 G l  .S.XXhX^.I.n.a H  .] 9 2 q r.u.J a V p.<.",
"R.oXuX0X .U.Z.T g eX0X7XpX!.R.c.h @X<.1.C 6.pXjXjXjX+X.XP.z.j.( + = y > ^ F C ] / v d G.cXHXIXCXZXhXz ,._.a.=...@ + 1 F A 8X&X-X",
"!.R.Z.9.O.x.).y Z ;XeX1.^ 1.A.f.J #XH d s v 1.MXLXLXLXZXNXcX'.d.o ] LXFX(.g.^ N.8.s h sX<.gXMXfX`.OX8.1.).u.+.Q..XW.h.& -X8X&XJ.",
"!.I.) 9 ..W w.W =X&X5.Y.D.1.F ^ #X#Xz j A g g.L._.OXOXOX!.~.!.x.+ ( PXMXW.G.n.} <.K yX:Xa N.xXoX`.OX`.I.!.d...oXxX!.q.V 5 O T P.",
"x.) 2 |.XX$.9 ..tX&Xn.OXvXR.V._ N K h * o   : 0 e.!.!.!._.~._.x.+ W cXfXV.c v F b eXqXK l G.OX`.OX`.!._.vXx.T N.R.w.f O ) =   w ",
"w 9 ! z.!.!.j.o.F.tXG.OX~.R.~.s.7 1 N h i.D.{ r r ) r.) ) q.) y @ w I.P.f.1.H l h V I a :.R.!.R.!.!.!.`.MXa.g F u & Z z.NXW.y.' ",
"T.%.7.o.( y W -.m.'._.!.!.R._.s.R *.R.H.2.vXnXC.{ w 3 4 W T % 1 # + 7 # z.OXH.1.y * ^ b a.!.T.R.!.)._._.`.i.h j Y Y u.IXnX`.fX`.",
"R.a.-.=.@.$.*.+.! y.L.!.!._._.s.r jXUXxXn.2.2XeX-X-X=XQ.ZXmX_.^.^.W.( @ Q._.'.R.w.* / , r.r.r.r.u.f.d.d.x.p.c F qXtXvXkXG.~.OX_.",
"R.s.o.l.vXgXV.| m.Q W i.d.s.r.0 %.IXZXCX].p.%X$X$X&X6.AXUXkXhXAXZXcXr.1 C.d.s.i.0 T V r 9 9 w 9 9 7 1 1 7 # h -XwX:X:.v :.T.OX!.",
"!.a...m.MXcXI.` z.W E 9 8 7 9 r B.CXcXfXoX:.d I =Xg w ^.2.S N.nXgX`.u.2 W 7 7 ; ..R >..XC.*.=.7.M.F.|.D.D.` + G =Xs k J C.OX_.!.",
"P.q.r m.NXfX!.( @ h.Q.D.| $.S.=.y.).`.OX4Xc a 1.) V N F @Xx v._.!.!.a.W S.S.k...&.( V D.u #..XZXVXMXZXvX'.T.0 g 1.^ 2.Z.`.~.!.!.",
"( 8 ..dXbX`.).) ` CXbX!.) m.'.&.o.i.!.`./.c c 1.: @.~ K H h R.OXOX`.a.' NX'.a.! hXa.g B ' vXkXlXCXmXcXoX`.I.> F q.f.x.V.s.s.u.q.",
"r ! $.oX'._.!.e.W cX`.I.W Q.).L.M.o.q.L.I.,.c , o.|.r.T =X6X>X~.fX`.d.` ~.V.; Q.dXH H 4.N.8.&XJ.OX`._._.OXx.^ 3 = q : = = # 1 7 ",
"&.$...D.R.x.i.( 8 I.P.r.9 y.( w w o.X.8 0 N F - -.o.) T ;X=X9X5.Y._.x.W j.y ' MXZ.S #XK I ;X=Xf.!.R.Y.P.A.:.F F C 9 R $.k.&.*.&.",
"`.U.%.y._ # @ # 1 q 7 % R Q k.S.F.D.F.M.M.|.n.9 -.-.E w C D $X8X5.f.q.w ` W ^.`.Y.h @X@XP &X* < b b h V V g l l l A G.nXbX`.`.oX",
"!.U.y.R 9 $.&.%.[ { 9 E l.gXHXHXNXCXZXnXMXMX'.!.~.j....XK.1 5 N Z # # O.}.n.L.V.C.u.g D I 5.:.>.2.N.G.B.c.# g J J v.~.OX`._.!.!.",
"_.!.{ O.Q.MXFXZXMX`.a.E %.vXCXvXfXfXfXfXfXOXfXOXU.{ k.Y.( j.z.8 7 1 }.qXeXy ( y : _ w W R.oXoXoXcXnXxXOXU.| r h.R.`.`.~.!.!._._."
};
