/* XPM */
static const char *parede[] = {
/* columns rows colors chars-per-pixel */
"128 128 255 2 ",
"   c #010203",
".  c #090304",
"X  c #040906",
"o  c #02040A",
"O  c #09060B",
"+  c #03090C",
"@  c #0A0C0D",
"#  c #08110F",
"$  c #020611",
"%  c #040C13",
"&  c #0A0D13",
"*  c #0A0E19",
"=  c #060C17",
"-  c #120D14",
";  c #061115",
":  c #0B1215",
">  c #05131B",
",  c #0B141B",
"<  c #0D191D",
"1  c #0C1917",
"2  c #111314",
"3  c #12151C",
"4  c #131A1D",
"5  c #191A1C",
"6  c #11100F",
"7  c #1A211F",
"8  c #0D1621",
"9  c #0D1B23",
"0  c #091A26",
"q  c #131C23",
"w  c #1A1D23",
"e  c #141E29",
"r  c #161924",
"t  c #0D2229",
"y  c #142125",
"u  c #1B2326",
"i  c #14242B",
"p  c #1B252B",
"a  c #15292E",
"s  c #1C2A2D",
"d  c #1C2926",
"f  c #0C2733",
"g  c #142631",
"h  c #1B2631",
"j  c #152A33",
"k  c #1C2C34",
"l  c #152C3A",
"z  c #1C2E39",
"x  c #1D3136",
"c  c #15323C",
"v  c #1D323C",
"b  c #1D383C",
"n  c #1C302E",
"m  c #22252C",
"M  c #232B2D",
"N  c #252629",
"B  c #232C34",
"V  c #2A2E34",
"C  c #232E39",
"Z  c #252935",
"A  c #243135",
"S  c #2B3335",
"D  c #23333C",
"F  c #2A343B",
"G  c #24393D",
"H  c #2B3A3D",
"J  c #293836",
"K  c #32383C",
"L  c #292F2F",
"P  c #211E2D",
"I  c #2F403F",
"U  c #1D3542",
"Y  c #1D3A44",
"T  c #1B3947",
"R  c #233641",
"E  c #2A3642",
"W  c #243B44",
"Q  c #2B3C43",
"!  c #253D4A",
"~  c #2B3E4A",
"^  c #323D44",
"/  c #323E4A",
"(  c #353942",
")  c #233C50",
"_  c #1D414C",
"`  c #2C4146",
"'  c #25424C",
"]  c #2C434C",
"[  c #2D494E",
"{  c #244146",
"}  c #334246",
"|  c #33444C",
" . c #3A454C",
".. c #34494E",
"X. c #3C494E",
"o. c #394446",
"O. c #254552",
"+. c #2C4552",
"@. c #2D4A54",
"#. c #2D4C5A",
"$. c #274957",
"%. c #334552",
"&. c #3A4652",
"*. c #344B54",
"=. c #3B4C54",
"-. c #344D5A",
";. c #3B4E5A",
":. c #374759",
">. c #2E515B",
",. c #2A5056",
"<. c #3C5156",
"1. c #35525C",
"2. c #3B535D",
"3. c #3C595F",
"4. c #355257",
"5. c #3F504E",
"6. c #2D4E60",
"7. c #2F5361",
"8. c #355462",
"9. c #3B5562",
"0. c #365964",
"q. c #3C5A64",
"w. c #3D5C6A",
"e. c #375869",
"r. c #3C5E72",
"t. c #334E61",
"y. c #3D616C",
"u. c #3C6269",
"i. c #3E6372",
"p. c #3F6B74",
"a. c #42484D",
"s. c #424C54",
"d. c #434D58",
"f. c #435255",
"g. c #43545C",
"h. c #49545C",
"j. c #43595E",
"k. c #485858",
"l. c #4F5958",
"z. c #425662",
"x. c #435B64",
"c. c #4A5C64",
"v. c #435D6A",
"b. c #4A5E6A",
"n. c #475663",
"m. c #515D66",
"M. c #435E71",
"N. c #436166",
"B. c #4B6166",
"V. c #44626D",
"C. c #4B636C",
"Z. c #4B696D",
"A. c #47696E",
"S. c #52646C",
"D. c #55666A",
"F. c #446472",
"G. c #4A6572",
"H. c #456974",
"J. c #4B6A75",
"K. c #456B7B",
"L. c #4C6C7A",
"P. c #456579",
"I. c #526672",
"U. c #536B75",
"Y. c #5A6C74",
"T. c #526D7A",
"R. c #5A6E7B",
"E. c #596576",
"W. c #4D717D",
"Q. c #4C7279",
"!. c #53727C",
"~. c #5B737C",
"^. c #587579",
"/. c #63767C",
"(. c #626971",
"). c #4C6F81",
"_. c #476D80",
"`. c #526F81",
"'. c #4E7382",
"]. c #4D7686",
"[. c #547483",
"{. c #5A7583",
"}. c #547985",
"|. c #5B7A85",
" X c #537689",
".X c #5A7689",
"XX c #557B8B",
"oX c #5B7C8B",
"OX c #5C7E91",
"+X c #577B91",
"@X c #617683",
"#X c #637A85",
"$X c #637D8B",
"%X c #697E8A",
"&X c #697B84",
"*X c #627E92",
"=X c #717D82",
"-X c #5C818D",
";X c #57838B",
":X c #5D8292",
">X c #5A8696",
",X c #63828D",
"<X c #6A838D",
"1X c #67848A",
"2X c #72858C",
"3X c #638493",
"4X c #6B8593",
"5X c #648A95",
"6X c #6B8A94",
"7X c #638699",
"8X c #648B9B",
"9X c #6B8D9B",
"0X c #6A8699",
"qX c #728B95",
"wX c #738D9B",
"eX c #768B98",
"rX c #6C929D",
"tX c #66939A",
"yX c #73929D",
"uX c #7A939D",
"iX c #6B8EA1",
"pX c #668FA1",
"aX c #728FA1",
"sX c #6D93A2",
"dX c #6D98A7",
"fX c #7394A3",
"gX c #7A95A4",
"hX c #759AA5",
"jX c #7B9AA5",
"kX c #759BAA",
"lX c #7B9CAB",
"zX c #7495A9",
"xX c #799EB1",
"cX c #7CA2AD",
"vX c #74A1AA",
"bX c #7DA3B3",
"nX c #7AA7B6",
"mX c #849CA9",
"MX c #819EB1",
"NX c #83A2AD",
"BX c #80A8AD",
"VX c #83A4B3",
"CX c #85AAB4",
"ZX c #83AABB",
"AX c #8BABBB",
"SX c #8AA8B5",
"DX c #8BB2BC",
"FX c #93B0BA",
"GX c #939DA9",
"HX c #8BB5C5",
"JX c #95B7C5",
"KX c #89AEC2",
"LX c #A0BCC7",
"PX c #98C1CB",
"IX c #A1C4CF",
/* pixels */
".     o o = ( u   +     o g R.<X@Xk                 X X + z D x b 4.1.1.9.z.;.g o   o : D | %.;.{.jXfX5X;XXXoX:XOXOXOXrX8X@.a G @.1.5X8XrXW._ W S @     + % o o u ^ x.8.e.XX8X8X8XF.9.x.z.~ j k j D 9 =   u Q %.;.*.9.9.+.x.C.z.z.[ %.= r E T.F.P.$XF.F.6XQ +   ",
"        * m.Y.^ :   X   > *.{.6X#X .                  + k D D x x ' -.q.x.9.z.n.D + o = > 9 R ] ] ;.{.yXhXhX3XOXOXoX9XbX9XZ.Q i 3.9.8.,XyX1.' ..u   4 Q Q k + o M Z W {.MX8X>X>X:Xw.9.9.z.v.! v g j z V , , R -.q.v.v.:.C.U.9.;.G.[ } 8 Z b.{.#.oXoXw.).fXW %   ",
"      ; S.eXx. .V o o + } C.6XjX<XC.+               + u E D D D x c v ! %.2.*.%.=.^ F E E a > i W [ ] *.L.9XlXbXlXlXVXyX+.G B ; D ~ ;.z.C.Q G p 3 q } Y.S.g.| = 4 A k v.wX9X8XsX'.8.9.q.9.9.O.C.*.W .. .B * ~ 9.9.q.v.V.!.1.@.9.!.[ %.z &.%XG.F.oX).K.OXfX9.9 X ",
"O o o C.wX|.q.z  .w   B %X4XVXZX9XI.<             X u H v U v D G v z U U j z z ~ E | D D Q Q k 0 k ~ [ ' ] q.}.fXJXuXW i m &   + $ B ^ s.Z o   V m.b.I.R.I.C.i > V E l l v.oX}.e.8.q.2.2.9.U Z.#XJ...Q A , W @.9.1.1.1.-.@.-.q.q.3.] 0 b.T.q.K.}.[.oXaXjXuX} : ",
"% o :.yX>X;X>.g Z 3 o G U.fXxXHXfXU.k   X       + m E W U T v D D D R v T +.q.C.z...=.<...W W Q G i t z ] *.{ Y [ ~.B.e V 4   + + = = q V &     u Y.b.v.<Xv.2.k > B g ;.v.$.w.F.e.9.1.x.J.A.O.V.|.~.v G G > v ' 1.v.9.v.-.-.v.v.! C.D > Q ;.u.}.oX[.6X&XY.Y.4 + ",
"o C 4X8X>X>X$.+.F 3 $ D 9.P.bXZX8XJ.}     X   : ^ g.<.2.9.1.~ k E | z ! F.oX<X|.U.9.-.Y.C.S.=.W ] G D D g D ' *.b x.f.B p m K H Q Q E ` } S 4 o , b.x.w.9Xw.9.R > B p b.%X{.oXoX[.T.T.|.V.u.#.[.}.4X-.v Q < x ] *.] W ! v ! x.v.-.<.p $ ~ 3.1.W.}.L.<XA 3 +     ",
"0 @X9X>X>X>X$.~ s.u % W 2.8.8XkXL.!.j.% X   4 X.g.j.2.1.9.q.2.p :.b.! G.oXoX[.L.J.J.{ *.C.3.W I.@X~.c.*.v k t x ..X.f.u q  .` =...4.2.*.] | | H & =.U.L.fXXX9.~ , p g n.$XV.oXXX X X{.{.q.O.L.L.[.4XG.v ` y a x k x k j j j j z Q | : o F j.V.A.T.{.Q :         ",
"G.wXOX8X>X>X8.~ =.u , ` -.0.sX:Xw.!.g.:   i f.c.2.9.9.1.2.3.z.R 2.v.8.[.oXoX[.L.A.J.T.8.! ' J.<X|.$X<X!.v.] D = < A  .: s x.J.<XL.1.v.#.W ....H , Q ~.{.ZXZX4XY.p w g g.4X8.).XX XXX X[.}.>.$.}.[.3X$XR E s < p s A s i k F V B S K   X m D.uX~.j.%.q           ",
"0X7X3X7X3X9X9.j A 1 4 =.c.F.7XP.#.~.| + A z.z.2.q.8.9.9.3.2.j.*.;.1.L.XXoX}.L.H.L.L.J.|.|.oX3X XOXXX XoXyX2.Q u   o , = D z.gXSXAXP.8.8.-.3.] k 4 % 2.{.VXAXjXY.4 4 k %.wX9.K.XX X X XXX|.!.O.0.oX.X4X*.D A + + + o + o + : 4 u N L O     4 k./.H q & X   + o ^ ",
"3X:X8X7X0X4Xb.~ A ; M D.Y.L.-Xw.q.Y.H + s.x.2.9.9.0.8.9.2.g.j.4.1.0.L.:X:XXX'.H.J.L.A.J.oXoXoXOXOX+X+XXX8X4XQ Z O o   % G {.MXlXKXbX6.e.v.! z F M o , V.9XcX1X| + 5 k ~ qXF.'.XXXXXX X X|.{.F.) r..X$Xb.D H +                               : ` B + o ; < 9 | %X",
"8X8X:XoX{.J.%.| X.q : ..j.L.L.u.!.Y.s + } 3.v.9.9.9.9.9.3.3.3.3.1.8.y.-X}.K.XXL.F.J.L.[.oXXXXXXXXX:XOXoX3XwX<.F 2     + -.$XzXlXxXAX3XL.' U W D S 4   k &X%X2X^ X : B z wX5X[. XXX XXX X}.}.[.0.Y v.{.Y.D Q :               o   o , q d @ X X + * 3 e j v ;.<X5X",
">X;X'.J.T.;.] | B *   p <.C.J.2.-.b.s   } 3.3.1.9.1.8.q.9.9.q.9.1.0.0.W.}.P.K.oXJ.P.[.oXoXoXoXXX-X:XXX[.4XlXV.s 2     o ;.$XaXaXzXbXfX!.! ! U Q F p o o  ./.2XF   + k k 1XAX}. X].XX X[. XXXXXL.O.q.{.~.[ W <   X           o = D 3...X.A X   d S E R T V.yXfX9X",
"H.F.L.!.V.] D k ,     & B H =.k i q & & F [ x.T.w.J.P.V.8.1.q.9.0.8.0.K.oX[.w.!.L.[.OXOXoXOXXXXXoXoXoXXX5XhXx.a :   X   b.3XzXfXlXlX-X,X|.9.v v G x , o o s S *   + k i C.AX:X X'.XX XoX XXX X[.#.q.{.4Xv.v p       X     y d.g.;.3.*.Q K M X B X.&.&.v.yX4XT.!.",
"|.L.G.C.z i D p + , 4 &   o $ o o     6 F c *.wX3XXX:XoXL.w.8.9.0.>.0.'.}.oXH.F.{.oXoXoXOXOXOXOXXXXXXXXXrXhX9.i #     , R.0XfXfXlX8XoX,X,X5XG.U W ` G k *     o o   i j ! VX8X].XX).'.oX X X XXXK.w.|.fX{.W B     o   & k z.#XR.$XU.` Q D H : s | / %.+.1.|.|.|.",
";.W *.a + : < % 4  .^ ^ H F B < o o   O S W v 8.fX:X'.XXoX[.L.w.0.w.W.oX[.-XL.v.L.L.w.e.M.P.[.oX:XoXoXXXhXfX' 9 1     h T.zXlXbX8XoX;X-X-XoXyXq.{ ' ..j.F o o o   o D U V.hXdX:X}.}.e.oX X XXXXXXX'.:XyX6X@.B +   X o Q Y.{.[.oXlXG.W ` A y o k %.%.+.+.{ U.|.q.",
"W E  ., X +   ; X.X.Q Q Q Q ..A + X     d v v U $.kX8X'. XoXoXoX[.XXoX}.oX|.V.G.@.w.K.O.#.-.8.v.T.oXoX9XcXJ.f y :   o / G.*XoX}.[.[.3X,X>X-X3X[.' V.2.g.^     o o u ~ J.yXsXsX8X'.:X@.G.OX XXX X].XX8XfXfXw.D 2 o o a C.$X{.}.XX7X@.! D k ,   C | ~ +.*.! 2.O.! ",
"Q =.F + + o + } =.=.[ W W G b x + X     + G v U ' L.fXkX3X[.[. XXXXX[.XX[.v.|.G.W 1.L.q.-.;.:.:.-.q.J.4XL.T t a :   : f.`.P.F.0.w.J.!.3X:X:X:X3XXXG.2.c.H       3 s.$XNXfX8XkX8X'.XXV.c 9XoX'. XXX XrXfXlXwXE 5   % ~ |..X[.XX X[.T D G y   o H %.! %.+.+.2.*.*.",
"&.s.h.3 o o M f...v.@.{ ' b j x :   X     9 Q ` 4.@.w.3XfXfXaX7X3X3XoX3X|.wX{.] ~ 4.Z.*.:.:.%.&.| ] x.2.v v k : X   S c.{.L.J.1.9.G.G.oX3X:XoX8XL.#.c.| u   o   u ( mXgX9XhXtX8X'.[.oX' U fX3XK.}.;XhX3XAX4Xb.M o z ! [.oXF.}.XX3X+.k k &   + ^ } ! +.] %.*.] ] ",
"/ E s.S + o o.<.;.J.+.{ ] W z B q   X     # } ` -.1.-.#.9.L.3XzXiX8X3X3X|.<XC.~ ] ..j.] E D V F E G x x B 9 ; o     S j.L.|.Z.-.C.G.G.oX3X3XOX7X).8.9.D m     o u i ,XCXsXkXkXdX-X[.[.|.v W 4X4XW.fXlXJXNXT C u 9 Q W L.[.W.K.[.,X*.k y     2 } } ] +.+...%.| %.",
"C k Z S @   ^ <.3.,X-.W ! ~ R Z m o       7 o.H *.4.-.9.-.@.-. X3Xe.$.$.T *.~.~ ..[ ` a $ o o o $ > < % o + o       5 g.0.W.v.2.U.b.v.{.*XOX:X+XVXL.W A &       < G J.-X}._.>XkXkX-X!.#X~.j f |.DXDXPXgX! l k < D R U [.[.W.J.!.|.[ k m     5 K H ..' ] ] %.%.~ ",
"B B V r   9 =.@.F.VXL.! ! ~ ~ C B +     X A } x k <.4.*.2.2.@.P..X$.O.O.~ v Y.*.] ` y   o o o $ q g ~ G , +     .   + s.2.z.9.9.T.v.M.P. X3X3X:X7XHXv.~ G E s % s g.' U W Y c q.yXVX3X[.|.{.-.c oXJXyXv g k V & q G v ~.{.w.F.L.!.9.k p +   N  .| 2.1.;.-.;.] k ",
"s B u o * ;.q.w.XXlXlX9.! ] W k V 4     , ~ k D a x ..<.-.2.-.v.v.~ %./ | z ;.z.~ H X   o * r C k v ;.W W B 2     .   S g.| ~ ! F.P.P.P.L.[.[.-XoXVXlX-.9.x.2.G i a i k i k Q k +.4XcXdXlXSXVX! U 0XG.z k B m o & B B R.<X8.y.). Xy.! ~ < o K =.c.v.9.x.3.9.-.v ",
"A s & o F C.q.F.[.3XVXT.T ! W z C q     q E p k k k x *.2.;.1.9.#.{ ] %.W v v 2.] s X : q h C C ~ U.T.;.R D F m & o   , B k k ' v.F.L.L.L.L.K.'.XX:XAXJ.1.q.;.<.t 9 b D x 9 a } D l !.9X!.J.J.T O.q.;.%.k A u     p x 3.yX}.W._.:X[.W ] k $ ( g.2.9.9.q.4.9.9.W ",
"A , o $ ^ <.A.V.L.oX3X{.O.v v D D p +   = s V B s k a x *.9.2.@.' 4.*.x x b b G [ i ; E Q | g.:.-.T.$X%X@Xx.] G D 9 = o < D a D z.G.V.L.}.[.P.i.XXXXfXlX8.q.x.9.W W 3.=.<.D + s Q D C.V.3.@.] c U ] R =.D D q     1 k [ rXrX>X>XdX6X] ~ i = F =.z.w.0.1.q.Z.C.' ",
"A o   , / ;.w.V.F.F.L.$XG.2.z z z D s * o o , m A m B g z ;.;.-.3.` k b G D A x Q a 0 b.z.2.z.v.#.$..X.X$X<X{.q.@.W z 8 $ 8 A a ~ ~.V.J.W.'.K.y.K.:X>XAX0X$.q.q.;.*.3.4.] Q 4 + p  .` Q Q G Q D C Q R Q E x :     + p *.Q.6XvXvXcXNX4.i o y Q =.-.q.0.1.A.!.L.-.",
"S o o w  .3.1.u.V.9.w.!.{.#X*.z z k B B q o     3 m F C g z g.g.D z i y B H A H F t v %X~.-.9.9.L.e.8.G.F.F.K.;X5X|.9./ C , & B k ..B.!.oX[.[.K.y.XXXX8XJXoX#.w.w.q.9.q.~ Q A o o 4 s s A D H H E E ^ F } D &       : E <.9.u.W.!.^.j.A + k W Y.T.1.0.q.L.!.J.1.",
"A o   Z =.3.q.V.F.F.F.V.F.|.~.W j D D k D B q o   & 3 B B k D ( h u o o + , m K F t *.qX$Xv.8.w.[.F.e.8.t.$.$.y.XXfXjXeXE.C + & y s D ] c.~.#X[.}.}.5XoX3XlX*X8.t.w.9.3.] H ^ % o q y p s y : : w u p s A z &   . O   o B =.%.;.-.| ..a = z k 2.|.F.F.|.L.L.T.-.",
"u o o p g.x.V.F.v.G.v.V.V.v.~.R.~ g g z Q ` ^ s &     & q k F Z % o o $ o   o & q z I.4XqXJ.0.L.oXoXoXoXoX'.i.i._.:X9XSX~.i B o   , q p i Q x.c.q.J.$X{.T.[.0XiXP.#.1.q.*.E V + q p F H Q s             o o o o O     o   , ^ ^ q : : o q D g ] {.!.w.!.!.T.|.V.",
"m o   q g.3.u.V.w.v.v.9.w.v.q.U.R.2.] ] ' W ~ | w       o & * $ q E } / A , o   < ;.gXqX[.v.[.oX[.[.{.[..XoXXXOXXX:X:XcX-Xi C u o   o o o + q H 2.z.J.J.J.T.L.[.fX:XJ.1.G *.q % k q a z k ~ A   +         X o o   o +       o         o B C k ~ T.!.8.' T.{.2.2.",
"m +   < f.3.q.F.v.z.w.q.8.8.q.9.G.G.v.%.W ' ] Q q           , | c.c.x.x.c.f.p o ^ %.b.;.' !.|.|.[.[.{.{.[.[.[. X[.).-XPX;Xf B Z 3             o , D C.U.v.N.V.L.}.sXjX|.2.~ , s F E D k 2.2X/.:   O         o t =.c.H % X             : M B k v q.{.!.O.l R l l ",
"B &   * | C.!.V.V.v.V.q.-.q.9.1.2.x.V.v.1._ ' | q         5 f.b.9.3.9.3.x.C.j.k p C z v {.!.F.K.oX[.{.{.{.$X3X*X*X3XfXJXrX;./ F V 5     + & 4 A s % 9 | C.U.T.!.{.$X<X~.c.i > G D j b.! J.NX2X}   O           x /.~.=.&.s +   .       4 C C k v 9.!.L.!.x.-.9.x.",
"=.B o o S Q U.~.q.V.N.N.2.*.*.x.9.q.V.|.9XK.U W G , X X X 4 } !.w.q.0.0.v.q.C.2.9 4 F z ~ oX Xr.'.'.[.!.U.q.q.G.G.8.$.T v.:.D E ^ 4 : d S  .| Q &.] i = e | Y.Y.x.f.X.M + $ a c ' J.{.:.>.hX4X<.q o           C C.[.F.`.;.&   .       < | ] -.V.J.L.L.!.!.J.9.2.",
"<.} :   m H b x.L.9.9.q.4.*.*.:.9.9.V.oXfXkXoX' Q H y     4 s |.|.H.F.w.8.9.2.U.x., $ a g U J.4XyX-XoX!.[.L.e.#.$.O.{.T.l v F F y   d s.X.f.=.D ~ ] *.] i > $ % = $ %   o i ] J.,XoXv.+.F.tX$Xx.E *           k $XoXK.L.2.$ X         o x ] q.{.!.F.A.!.!.!.q.1.",
"q.*.e o u Q G v x.|.V.q.@.! -.O.q.J.J.:X8XfXlXJ.g.o.A +   2 B L.,X[.'. X'.oXw.T.~.c.q o < p k ] 1XCXhX7XOX[.oXoX[.4XSXx.~ D E q   + ^ g.g.<.! W ....~ *.=.*.W 9 $ o o $ ^ D.qX5X}.'.[.#.[.4X{.~.x.G 8 o   o o G <X'.}.F.x.=             , ] 9.!.!.L.J.L.F.V.8.q.",
"A.2.z o q H ~ W W Y.6XV.w.8.1.w.P.L.[.8XsXlX[.1.j.X.u     1 B J.3X3X}.K.'.OXP.J.T.R.m.%   @ 5 u a ! sXkXsX3XoX4XwXmXR.*.W E %     A c.=.-.] U ] ] ] =.3.<.z.x.z.%.D 9 H (.mX#XL.XXXX9XM.l ! Z.|.U.v k p &   , <XjXH.K.4X<Xq             o B *.v.V.q.8.0.0.8.q.9.",
"L.q.E o 3 Q D W W R V.wX{.L.J.L.L.[.3XsXkXoX8.9.] A : 4 , : } gX3XoX3X]._.'._.P.L.#Xg.X       # s U oXsXiXlXfXqX@XC.S.| D , o , y | W v U T O.@.W U 2.9.2.3.9.2.3.b...a g :.eX,X}.7XiX`.9.j f L.!.' W z Z r 3 E B.<XV.wXY.*               , Q x.V.1.9.e.9.@.8.8.",
"-X3.} q & H H x x R v 9.4X4X|.|.,X9XlXlX[.e.9.-.W ; 4 H X.4 &.{.3XoX9X>X].'.K.P.oXeX^           % ~ gXlXzX3X@.~ x E | D = + H | | ~ z.v.G.V.$.1.3.z 9.z.2.9.z.3.2.3.=.> , i z.NX8XkX8Xe.v.{.' U 9.@.3.&.E V r   , x.c.=.Z o o           X o D ..Y.U.9.1.1.9.G.|.",
"' -.&.Z o B H G A k v U ] U.4XyX9XyX$Xv.@.1.q.' = ; D f.c.g e %.<X4XoX7X:XXX'.XXrX2Xi   X       o D @XMX0XO.k z m u y = > E X.| =.;.!.oX,X,XL.9.x.*.9.9.q.9.1.9.9.2...k $ i 0 {.CXhXXX8.v.:.V.c 4.[ <.g.F , o o o > 9 s P O             X   4 } <.I.R.U.R.~.G.;.",
"j E  .( o o : y B A D D b c 4.|.!.q.+.*.+.*.=.k o a &.c.g.2.0 C 2.4XoXOX>X:XXX7XlXD.+   X : 4 :   4 p ;.2.k , X X     = E *.*.C.x.8.P.J.!.oX|.V.9.2.2.q.9.1.9.9.v.V.` A $ e 9 9.AXlX5X$.1.8.9.2.<.g.g.B +   o o o o o o o o o   + $ u B o o o B f.z 2.R.:.R k i ",
"x B V V - X     # y s G D c W @.' 4.x.;.*.=...9 % } f.z.9.9.U , W b.gXoXOX:XoX8X6XH o o < | | k   + : D | % X       + F | ~ c.G.@.q.'.L.L.|.|.J.q.9.9.q.1.9.V.V.|.J.A F * & , <.SXyXlX4XH.0.1.z.g.X.w X       o q i 0 > & +   , D ] =. .^ q   e | k j k g k D D ",
"> * O               + < s D W *.-.*.] W D s y o p g.g.2.q.w.-., u ~ U.jX$X}.-XsX!.u   o g c.Q G q     : ,     O   @ F =.c.b.*.' 0.W.K.P.L.!.J.C.9.1.q.9.q.V.J.J.$X+.x A & o w b.LXlX9X5XcXL.2.;.V +   X   # s X.Y.I.B.c.m.( X 4 j.{.~.I.S.=.p % B G D B k a e 9 ",
",                 X o   + < a k b D i e : : : & % Q c.;.9.0.9.H o D Q ~.NX<XyXfX9.:     z @X~.E B 3 2 + X       : G 4.G.T.J.L.J.L.K.H.H.!.L.A.J.w.8.9.9.v.U.Z.{.b.R R k $ o w ( f.gXcX>X#Xh.o.w     + i ;.J.T.|.L.P.P.!.R...; 1 <.wX4X|.,Xx.x % : u ; < 9 a D G ",
"j.B +                   o 9 a g [ j.j a H k B ^ i < <.x.9.8.q.=.e % ` W &XFX<X!.*.+     / %X#X~.3.Q Q y +     o D 2.Z.K.H.J.J.J.H.L.H.H.W.H.J.J.V.q.q.N.L.J.U.Y.R ~ %.z o o   & q t w.5Xx.B 4       4 /.<X3XlXfX:XK.6.>.A...t J } T.V.0.H.J.b q o   1 E ` ] ] U.",
"<XY.s o         o $ , Z F D ] q.6XNX#X[ 0 z | H D % k v.9.w.9.g.&.= e } g.c.k a k     o D %XL.W.W.!.^.k.d o   @ H C.|.H.K.L.L.J.J.J.L.J.L.V.F.L.L.L.J.F.J.T.J.%.R v ] %.p     X & q t -.} , o       f.2X1XcXZXJXAXfX3X|.G.C.` s Q v.q.,.,.^.` z * $ Q ..] ] { |.",
"wX{.S.4   X + 3 k G Q G W 9.oXhXhXrXNXSXI.=...G E < , z.9.9.2.j.<.] $ k h.B u : o . . o 9 I.oXL.y.Q.cX/.u     @ F U.,XF.K.K.H.J.J.J.J.F.K.y.y.F.G.F.J.!.|.J.{ v D W v D ^ w       : A =.B +       X } ^.|.8XlXVXoXL.|.|.R.S.E e z *.N.>.,.J...G i i W W %.c.q.oX",
"9XT.@XB.: X B | R R W 3.{.oXoXXXXX5X3XcXJXmX2.W G i > j.x.9.9.9.3.2.k = B ,     o   O   o k -.!.|.9X|.X.@     @ H x.4XL.K.L.K.L.G.v.9.v.8.O.[.L.!.|.,X4X|.{ v W D R k p F M O       q S *           X y *.q.yX,X8.1.9.G.b.x.k = k ' J.3.q.V.%.C k ~ %.;.9.q.1.J.",
"iXL.G.&XH + k *.] 2.$X1XoXH.8.8.K.XXW.}.jXG.l x W G , } =.2.9.1.9.9...i o o o o   X @ @ X ; D x =.S.| u X     O u ` 4XoXP.L.!.G.2.;.*.C.9.! 1.!.!.G.9.9.!.U U x W G z k B :       o o u q * - O O o     ; D I.x.*.;.<.I.m.Q > , D ' !.9.x.C.g.e , | ;.q.9.w.0.y.",
"8XK.V.R.| % x j U.4X$X!.!.>.O.r.XX}.XX}.3Xc |.I.b W i i x ] 9.8.9.q.3.~ | d.s.f.f.f.f.f.I d , + & * &     o     q a ~.9XJ.L.Z.3.-.;.:.*.b.[ ] *.] W ! { x.*.c ~ Q k s B , o     o q F  .B V V N N N m u q = 9 i i s p F F $ $ k G ' J.V.x.c.s.* o z *.9.;.8.1.w.",
"8X_.F.C.g.= k D b.G.F.L.q.O.'.oX[.oXL.8XL.f yXyX=.Q i ; a Q 3.0.q.1.q.2.x.Y.B.S.D.B.N.D.U.D.B. .s *   X   o     & a W <XwXJ.2.*.=.&.^ E =.] ' 2.~ W *.' ] ..x ^ D B B q o   o 8 D Q <.x.W B k B h Z B F g.D   o     X       = D Q z.|.x.x.h.m   o + A R ] 9.8.w.",
"iX'.L.C.c., k x %.! 1.3.@.J.oX[.oXoX[.5XT e.oXyX@Xj.k + 9 } z.8.w.8.1.@.@.V.x.N.V.V.F.V.V.V.C.I.~.C.] i ; o o   o s a G x.c.<.} F 8 % % : ^ ] *.Q z W %.*.&.=.| Z V w   o , C | ] +.L.jXNX<Xc [ ] z | z.c.} :             + p H R c.#XN.g.B o       + i +.x.1.N.",
"kXW.!.C.S.< a ~ 9.q.N.V.C.|.{..X.X[.oXO.$.OXL.gX1X<.` ; : H B.G.@.#.#.@.#.J.!.H.y.P.P.r.P.P.V.u.F.!.}.!.b.( w , % + i k G x y < &   o     : Q } R D D D E Q =.^ V w   & M  .| W v.3X3X8XtXrXV.yXgX6X4XJ.q.B.m   . .       X m | Q z.4.[ i     .     + G <.z.1.L.",
"xXoX|.!.j.e e | v.8.8.G.|.{.[.[.oX XP.i.oX[.oXMXG.k H @ @ H j.j.*.<.;.@.1.w.'.K.i.F.F.F.v.V.v.w.u.L.}.~.|.-X!.4.Q V 8 & & o c ~ G Q | s o o V ^ C E E q , q Z V w , h | | ~ -..XfX7XXXXXXX}.3XoXR.<XT.v.9.N.=.        . .     V X.} d +             5 :.z.x.-.4X",
"8X:X3XV.j.k C g.2.>.1.9.L.|.oXXX X XXXXX}.|.9XzX#.W p   X H H s H =.z.b.G.v.[.K.F.V.v.Z.V.V.V.V.9.w.|.,X!.}.;X5X4XS.(   + D x.2.@.c.C.Q k & - ( E D , o   X o , m ^ %.~ +.G.gXjXOXoX:X:XOXOX3X.X`.U.v.q.9.q.j.:   o     . .   + @ X     X           : =.2.9.w.SX",
"OXoXoXV.z.D 8 g.@X!.F.q.G.|.oX[.XXXX'.XX5XtXdXsXT R +   o * ; 9 9 x ] 2.;.-.[.yXJ.v.V.C.F.V.V.F.A.q.q.$X!.W.y.W.{.;.F o } B.q.v.V.!.Y.] | B * e B =   o o + u E | %.' 9.3XVXwXoXoX:XoXOX:X:XoX{.[.G.q.q.9.9.B.d   o             X X                 o ~ 9.-.[.AX",
"OX[.F.[.C.Q o i S.qX6XoXG.{.|.L.L.XXsXVXcXtXpXdXw.v &     % , 9 > = 9 z ~ ] W |.T.v.G.V.V.V.V.N.F.N.q.T.L.W.Q.XXJ.z.p , =.S.J.J.L.q.L.C.G W D , + o o o y E } *.+.O.J.hXVX-XoX3X3XOX8XiX3XoX[.[.T.v.9.q.q.9.c.A   o   o         + : : : o         o o 0 *.9.jXzX",
".XL.y.!.|.%.= o s C.6X4Xw.G.J.v.[.jXlXL.1.5XhXkXwXR 4   & Z g.C.c.Q , $ , z R C.v.1.G.V.V.V.G.V.A.w.L.[.L.K.}.3X9.x.0 i W x.!.!.|.F.0.1.q.-.R R 9   < H | } [ T $.:XbXsXXX-X:X:XoX9XfXoX'.L.L.|.G.9.q.9.9.9.x.H o o o     * < 9 H f. . .S o       q s g ! {.AXOX",
"{.F.F.W.,X<.9 o % A ~.mX! x.%X{.U.2.W j g | #XmX~.d.m   e x.x.c.Y.S.| & o , G Y.x.' q.R.V.V.V.V.A.N.L.T.[.P.-XH.1.;.9 W @.V.q.!.,X6XH.>.q.q.1.W ] s q s.g.x.@.y.dXbXsXXX:X:X:XXX3XfXL.L.[.L.[.oXq.9.9.9.3.9.x.} o o o , B &.c.;.*.x.j.} } q   ; D ` ' @.! jXlXXX",
"T.L.K.W.|.x.a =   , | R.~ W R k k j a e , & h ;.i B F + ` !.1.j.E A S @   < E ~.q.+.+.v.!.V.G.V.V.V.J.[.oX[.-X1.2.R g W 4.!.1.V.W.rX8XW.$.1.F.T.U.` > p } Y.<XCXZX>X:XXX:X;X-X>X3X[.L.K.!.K.|.J.-.x.9.9.9.q.2.H $ o e &.;.x.C.C.|.Q.[ { ` H < ..B.3.9.9.w.VX3X:X",
"T.!.W.'.[.G.C 4 X   s ^ B k k B q : o     .   = = & &   H 1XJ.Q < + o +   w } ~.q.-.@.@.G.J.v.F.F.N.L.[.F.rX0.1.z.G D C.U.~.v.1.1.[.hXsX5X8X0XfX4Xz.9 g k k ~.FXdXXXXX:X:X:X:X3X-XP.!.[.K.W.|.v.2.x.x.3.x.q.<.V   a =.x.z.v.V.$XNX0.c ' x H ` =.3.q.8.#.G.sXXX7X",
"#XT.K.'.H.G.E q X @   k u q +                 o o o   X : 2.<.q o         m | U.8.-.;.-.-.T.F.N.V.V.L.L.3XoX1.W ` E = ^ C.Z.R.q.1.H.9XsXJXVXxXkX$XC.z 8 R g 2.VXrXXXoX:X:X:X-X[.W.!.L.L.L.!.L.v.x.x.C.V.A.3.| , , =.c.C.v.V.v.0X3X_ ' W D d < Q *.v.L.[.3X3X3X:X",
"@XG.K.P.y.J.E w   X   o   2 S N 5             X o         = = X   @ O     V | q.#.-.*.-.@.v.!.V.V.F.J.oXW._ #.[ X.F   $ D z.T.R.V.H.XXsXAXKXbXVX{.9.n.> Z k ] mXrX>X7XOXOX3XXX[.L.!.!.|.-X,X,XV.9.x.V.J.q.4.z < G g.I.V.V.F.w.oX7.Y ! z V * & / %.! 9.9X5X:X7X:X",
"~.N.L.y.H.J.D p     X   o F  .=.F s &         + s e B , $   o   q (.a.  * C %.-.-.-.#.1.9.1.H.L.V.J.!.C.W W D ` D 3       E ;.G.$Xw.K.8XnXHXKXZXxXP.v.z 8 k z gXlX:XiX9X3XOXoX`.L.J.A.A.A.!.q.' q.q.x.j.g.F e E D j.Y.q.q.N.F.|.@.R G A 4 + p D E %.{.3X3XoX3X3X",
"Z.N.N.A.J.@.j s + X   + i ~ -.G.8.[ Q a , 2   + F b.P.[.g @ + o g.FXn.o e / 2.9.w.9.w.8.1.q.q.H.!.!.N.G ^ Q i e o   o     o g z.G.,X'.'.8XpXdXdXdXsX!.*.> x c.R.4XlX8XrXfXiX3X.XL.J.A.N.v.9.9.N.u.9.C.f.F , C Q D x.v.V.q.9.N.^.` k A y   1 M H k z.wXOX3X3X3XoX",
"N.J.A.V.q.U k s + u S B } v v.M.-.9.3.<.X.a.@ , /.gXM..XqX(.+ < c.=Xd.$ C %.9.9.F.V.@.@.w.V.q.1.A.@.v ..D > ..S.f.D & o   o o p  .f.C.I.~.4X,X3X:X5X#X/.q p d.~ *.G.0XrXzXsXiXOXK.F.K.W.[.{.$Xx.c.J.*.i o = G D R U.G.w.q.1.V.U.b z i + : J k Q j G.0XoX:X3XoXL.",
"J.w.J.q.T l D e + ^ } } W +.wXfX{.q.3.-.*.=.q $ /.$X[.L.uXg.  y D.D.F & Q ] 2.8.0.q.!.!.u.9.1.q.4.[ R < > *.~.R.qXuX@X] e , o   o 2 w V  .B./.~.$X@X2XD.p   % u F ~ @.!.rXzXsXsX:XXX'.'.K.!.!.C.c.~ = 9 e + k x W ~.V.1.1.1.V.C.j D i + s A D W U P.3XoX:X3X[.F.",
"V.F.9.@.*.R k > q ^ E ] W J.lXlXlX3Xw.@.+.%.E o | G.[..X$Xz     5 N + 3 } | 9.q.8.1.q.8.>.1.V.3.` E o 9 <.J.T.J.J.oXlXjX{.c.F o O . O   & 1 A f.Y.D.X.&       o o q k W z.$XlXfXiX7X'.L.W.L.^.j.z & k S.~.c t x W ~.V.O.#.1.3.N.v z j D G x D v U w.8X:X:X3XL.P.",
"#.8.9.T.v.:.Q = D | ~ W *.4XfXiXsXxX9X0.$.q.~ = E Y.v.oX@XR o         u B F | ] x.9.#.+.@.q.~.' =., q x.c.9.J.H._.'.oX3XsXyXH , o O   - M u   + 3 3                   # : G I.6XyX,XT.G.V.^.3.9   8 E Y.<XN.t x G @X!.1.#.9.q.C...R x ] | j.[ ] @.i.OXoXoXXXL.F.",
"G.P.{.R.;.x.R > F G ~ ! 9.3XoX:X8X8XkX:X6.e.2.9 p D.z.v.R.| o         w Z V B k Q W [ x.N.j.*.g.A , h.C.3.v.oX'._.XX:XXXXXNXc.i % $ Z Z | G > o                           X + a j.~.~.~.~...$ $ 9 i g.*.N.Z.9 A x ~.|.G.v.q.V.A.] ] G ~ | *.9.v.H.:XsXsXfXsX5Xi.",
"L.V.#XC.z.=.> k D k ~ 9.q.J.F.F.L.oX9XfXK.6.9.B ; s Q E.@X~ +         o * w Z F p i D x.B.` <.g.% B c.z.9.P.'.K. X>XOXoXfXyXI.9.0 0 %XmX$XW v o                           X : 1 > k } B.` + % D F s.D.=.C.' > p G S.uX,X[.[.4X,X{ Q E E ..~ +.1.#.sXVXbXkXlXkX:X",
"{.R.Y.c.g.9 ; D z k v V.V.q.q.q.H.K.}.rX8X8.*.o.+   , g , = < , p s 4 s q $ $ = k D g x } g.c.9   D h.z.q.L. XXXiX:X[.yX<X;.Q z 0 1.9X4XJ.$Xb.8                       X L ` ..4.' t 0 9 o   4 ^ D.&Xg.Y.j.z o 4 =.&.I.wXgXrXcXrX[ ^ i 9 &.%.z.1.A.DXcXsXsXsXkXkX",
"L.v.<.| i ; p A k x W !.v.3.3.1.9.V.W.5XsXF.[  .2   o o 8 E F D ..| x | } s 9 % % k B z z =.x + X y h.9.v.`.OXoXoXoXyXT.{ G , o b H.u.;Xq.|.R.8                     X q ..2.!.4X[.1.v z V O o p } j.j.=.g 9 o o e =.2.1.W.-X8X}.[ y   $ Q :.z.1.,XDXhXkXkXsX8X5X",
"R i 0 9 p A B A x j N.^.*.2.3.@.+.w.L.-X:X8.~ F 5   o u ^ | k ! ] U U @.{ G s 4   o < s ^ ^ + X X @ a.c.R.4X4X4X3X4X9.v 0 o   i N.H.y.}.F.|.R.=           X : : X   , } c.4X5XW.K.{.V.R K 3   o   + ; + o o o o   i &.*.*.3.1.q.2.q o o * / %.2.uXSXjXhX4X4X{.w.",
"= q h B C z b j j @.^.u.4.9.;.*.+.9.K.5X!.c G B 2   o ( /.n.G.F.F.{.oXXX0.{ n # . + o o u 2         N l.h.g.| #XR.~ e e F u & &.~.V.W.XXK.fXgX&.-   X + 1 y H H 4   p ;.<XjXH.1.@.1.J.z.E u   o X     + , e > $ o   4 o.X.} H } F 3 o & $ q &.%.{.mXjX<X~.x.i % ",
"B D F D D D W c *.|.Q.q.3.3.-.-.' 1.L.6X9.D G p o     o h.uX$X3XwX4X0X>XW.Q...+     o q , o           u < i 0 i W j Q %.&.Z o E z.u.oX}.4X<X%X&.+ & p s A D G H G 9 = z %.R.J.1.#.0.9.Z.S.V o     + : p | b.g.=.=.p   : 4 o + ; i i i k E k k %.*.C.3...` > 8 i ",
"C k D Q ' W c @.|.~.N.q.1.4.3.;.1.q.[.|.Y W x u       o o =.qX4X$X4X3X5X}.W.~. .u q |  .s s , o       o o + 0 v %.2.x.:.Q B & p =.3.!.!.#Xk < $ B E i k t c ..x ` G < 8 | D 4.Z.V.0.q.N.C.^ + + q S | E ..Y.c.2.;.| e   o o o q c.x.;.%.Y.] i R ..%.E e + i | D ",
"z Q ] W ' W W N.!.L.N.q.4.9.x.v.v.V.4X9.l v x 4         +   D {.eX4X$X3X5XK.L.z.| &.=.D a D z i , , ; ; t i %.2.x.G.@XC.i C & e b.S.Z.~.~ % o i 2.<X<X1X!.J.!.4.g R F e i ] k W J.L.w.w.c.=.o q n.} | z.I.R.G.G.;.*...< o o 9 Y.<X1.q.9.{.#X] i 9 % o o o u  .z ",
"] W ' ' W ' 9.|.[.H.N.q.q.v.V.x.V.|.T.v U x A % o     o X +   > <.<XwX,X8X}.L.M.R ] ..~ k j j R ~ ] ..*.D ] x.3.9.;.b.Y.j C r %  .2XY.Q ; o s Q !.cXhXCXDXIX,Xc -.W G F = % a a W G.T.w.b.F o e S.Y.G.J.q.J.L.L.T.v.C.=.= , =.&X~.q.W.y.e.F.R.=.> o       m } ~ ",
"W { W b 4.yXhX,Xu.u.A.q.w.q.V.q.C.~.+.v c D k +     : B ^ x > % o g I.4X4X3X[..X+.] +.%.W U ] 2.c.C.U.~.G *.9.v.v.-.;.U.-.p p o o p f.1 + s G c.hXrX5X-X[.sXW.' mX|.<.%.G ; o k G W wX$Xh.B o i j.{.!.8.w.}.oXL.G.|.c.| , = z } C.oX}.}.}.0.V.qXc.q o     u E Q ",
"W [ @.x.jXNX,X|.w.q.F.G.1.V.V.v.J.*.v W x D y o o q Q B.~.~.z.j 9 o $ =.4XyX!.%XM.%.+.+.[ ;.9.C.!.[.J.~.j.U N.{.v.8.@.V.V.i Z % +   + ; i Q ..1XoX'.}.}.'.oX!.l $XgXyXU.&.A o u E E C.!.^ o   q 2.G.G.>.H.!.9XK.1.$X%.G 9 o = F Y.J.W.XXXXoXT.1XmXX.+     u | Q ",
"3.q.!.6XjX6X$XJ.v.F.V.v.v.J.V.{.4.R D E F K , $ k } c.R.V.L.,X/.A , o > =.yX<X{.q.%.%.+.+.;.9.q.V.L.T.~.2.W !.[.J.8.w.1.{.} Z * o o + s Q W |.|.V.8.W.}.}.-X|.c [.R.VXG.v D o 3 V F } x.M   o e z.!.w.0.8.}.fXw.V.9.] } < o o & ^ 1X5X[.).XXoX6XmXG 1     w  .| ",
"*.1.1.4.1.V.!.G.F.v.F.v.V.w.!.!.v W ~ Q ^ S + B f.2.x.L.L.K.V.@Xg., o & i x.1X+.%...] ..+.;.9.3.1.v.!.J.{ V.[.F.W.w.1.N.J.z Z w   @ p E c !.3XF.O.q.oXoXW.-X!.Y |.{.lX[.W F   @ K K s.` @     q *.U.J.#.0.rXsXF.1.*...A 4   o o , ..4X$XP.e.e.J.<XG s     4 H f.",
"*.3.2.2.4.q.9.V.G.q.9.v.q.-.T.*.W Q F D q , 9 } :.z.9.L.K.K.F.g.^ &     4 A j.] ] %...%.+.;.9.9.0.0.F.q.U.^.W.F.F.y.8.U.2.C K u & m ^ x Z.<X}.P.@.T.{.[.XXoX0.e.$X[.dX3XT D + o 2 3 q :     X e %.{.!.0.[.6XsXK.1.x...H 4   X   o C <XmX6X*XoXJ.D } F 6   X ; p ",
"& B } b G g.C.2.9.1.2.j.x.x.g.Q B q &   q %.;.;.b.C.T.L.L.F.-.X.p   X   @ A | ] ] ] | +.+.1.q.8.0.0.W.|.!.F.y.L.!.v.C.b.=.a.m o i ..{ 1.,X{.$X9.1.oX[.XX X}.i.'.}.3XpXzXP.v y X         + u F i x.~.L.y.-XsXvXF.1.v.;.D 4   X     E mX<XY.~.&Xs.B m &           ",
"    ; X o y &.&.~ ] -.[ ~ D e > o o   + ^ z.] 9.$XU.J.T.G.w.q.^ % X     X d X.| &. .| | ~ *.;.x.#.u.!.N.[ c T J.{.C.<.} B *     < b W J.$XJ.V.1.q.oX[. X X XXX}.3XfXiXiXzX~.| A @   X : s F | k *.{.!.F.sX8XPXrXy.q.2.R p       o 8 | G < a A y @           X X ",
"* o   , %   o * , < 9 i v v C E 8 o + 4 | ] R 2.{.|.!.L.L.w.9./ o o       2 S V V Z S K F K X.X.} =.H a k j c ;.2.*.G < + X   X + y a 2.3.' q.F.J.oX[. XXX'.XXoXfXlXzXlXmXeX=.} q : u B k Q %.D g C.~.L.fXZXZXnXsX[.v.E y o   : F C i > o + + o         X : p B ",
"( s z H F *   o   o 0 U v.C.z.n.%.e   4 | W ~ *.V.[.J.F.F.w.+.&.F &   . .   o o o       o : 3 3 4 w M V A B D | Q a , X   X       3 V D %.1.y.F.[.oX}. XXXXX}.fXNX8.2.I.%Xf.9 y i B B k i *.=.Q 0 ] U.|.rXPXZXnXdXgX1Xc.k   , F } D B p k < +       + : p E } ^ ",
"Q W W <.X.m     : S W ' C.T.v.2.:.g.B o F *.' ' -.8.q.V.L.!.V.+.| ( 3         : 9 > , q =         o & & 4 u V B 9 D E s :         O w V b.9.8.8.q.'.XX X XF.[.VXq.t k 9 9 i i z j g j W 9.#XY.%.k g G.{.rXZXHXnXkXfX~.;.9 $ E } E B k k A B B y : : d k ~ ` ~ ~ ",
"+.0.!.N.<.F   : a.o.-.V.J.L.J.!.G.S.h.+ 9 ..<.9.8.8.0.0.J.!.9.T U E S &   o u g.=.] +.R.z.a = o o         o * p F E F H H M :     o 3 B | 3.>.8.0.w.W.:Xw.F.6X9.j k &   : k z z U ;.Z.!.{.v.I.x.E 0 ;.!.9XsXZXnX8XG.C.D o C } ~ ~ Q Q G G A B B A A A x b b W { ",
"5XCXCXu.4.` = % k.Y.~.v.w.[.|.w.|.C.D 8 o E c.;.q.0.w.V.T.1X9.' W k ,     4 =.Z.N.#.r.aXqXY.S.C o & o   o 4 B D D G G H H F H A : o o k =.C.~.|.,X[.w.J.!.<X-.a k +     3 ( a R $X!.G.1.8.-.9.b.*.e j R.,X5XdXnXK.9.<.= , =.E ~ ~ ~ ~ ] E G G D k k x f Y 4.' L.",
"vXdXcX}.1.=.p o ` U.U.9.F.XX8Xw.V.v.} D   u f.z.9.9.P.!.J.C.*.#.[ y   o   u S.U.|.:XfXHXAXwXeX&.o o o & p F z z x v R E E E E E G D e > z <./.2X6XuXZ.U R.W p s o       + ^ | ] {.9.1.1.7.e.9.z.=.D > v.$XoX>XkXV.b.G   + } =.:.~ W ! W Q ] v x j c W { N.A.|.yX",
"8XrXcX-X-.z.%.9 R Z.T.8.8.XXsXP.1.2.R C o % =.n.9.{.[.G.%.z v { =.B   O   q c.J.J.'.8XlXgX%XY.q   @ u S A z x z v R W Q Q E W D v ' -.D 0 = e | Z.6X6X' i k p o           D 2.G.V.9.9.1.8.w.q.<.g.D o R {.oX:X5XL.j., X   A f.=.v.9.@.*.] v ~ 9.J.!.|.1X|.W.!.-X",
"-XrXcX0X-.;.d.E z G.T.8.6.XXkXK.8.x.%.D =   B ;.;.v.-.] x E H D F V O .   o D C.w.w.L.~.C.Q , + 7 M L A b D v U T T U R R ~ ~ :.G.J.q.q.<.C 8 , t [ c.k D p     O O       h | G.q.1.9.9.K.'.G.3.h.E = 0 G.$X-X-X~.Q   X   4 s.*.9.oXyXwX4XG.G.$X0X3X}.H.Z.L.Q.!.",
">X8XkX5X@.*.;.e e ;.|.F.F.5XkX'.$.x.;.D ,   + : u M M F H A s M u @   . O   w D.B.j.B.^ ,   + B A A k U W T v c T @.q.V.V.G.T.,X,XF.9.9.9.z.%.g o = V V 5 o q ^ *.*.s o o q | v.q.0.N.T.!.!.Z.q.2.k p + B h.=X&XD.4       + } f...N.yXyXrX3XoXoX[.[.!.U.!.!.!.!.",
";X8XcXoX@.;.%.$ 8 d.@XP.K.0XcXkXF.9.4.W 9 X       X   @ M F s 4             + : : # : X     B | k W W T T ' q.!.,X6X,X^.V.N.F.J.V.v.x.q.9.9.:.*.s   o O o u c.x.w.q.Z.F   , / 3.N.!.F.V.!.Q.J.Y f W g.<   @ u } o.    O     & B j.x.!.}.-X'.}.XX[.[.!.T.G.G.v.v.",
"-X5XlX!.2.<.p o & a.~.T.L.sXZXHXhX,X|.2.s               o < : + : : : 5 4 2           X X &  .| ;.W c #.T.4X6X,X{.J.N.v.N.N.V.V.V.G.C.V.v.9.9.%.| u   o   q Y.C.q.q.3.b.h $ ~ 2.!.L.U.V.L.}.U Y J.~.C.} p       +         X   % f.!.!.,XoX'.XXXX'.W.L.G.V.v.q.!.",
"3XfXfXV.*.&.* o   5 g.[.L.kXHXZXbXlX6XG.Z   . .   .     & < D W 9 A F Z o.L X         X   B =.| *.w.J.,XwX<X!.A.v.q.q.q.9.q.A.F.V.v.v.G.v.9.x.;...} q   + < S.$X[.L.F.V.I.e z ;.Z.|.J.Y.!.W.Y H.|.J.~.;.Q q X X             X   } @X{.oX[.XXOX}.i.K.}.[.J.1.8.oX",
"yX6X!.*.=.A X X     g v.{.sXKXKXkXfX$Xx.<   O     o o q h Q &XqXx.z a | F K 2           : } <.+.8.8XsX0XoXJ.!.N.-.q.N.q.x.V.v.9.1.q.V.V.V.q.9.v.@...&., + B /.<X|.'. XP.{.n.k | *.3.W x.!.W.$.L.W.L.T.C.*.R p 4 & o         X   q ;.b.`.L.oX Xy.i.W.P.J.L.F.|.5X",
"{.[ W =.| :         + ~ ~.3XdXnXZX[.v.~ o   o o o q C D -.1XgXlXAXSX#Xc.Q H M X         m X.z.+.W.iX8X3XT.G.9.' Y ' 4.q.x.V.N.q.v.F.G.F.V.w.q.N.N.x.B.A   D /.<XoXXX_.P.$XI.9 } ] k a } U.[.q.[.[.W.L.~.x.W A B m M w &     X     9 %.G.`.{.oXoXXX[.W.[.oX4XfX6X",
"D k D G p     X       > z.,X3X7XbXT.z.D       < D R T 9.,X9X3X7X3XlXLXC.v k H :       : Q <.q.#.oX8XpX[.J.G.1.-.1.*.1.3.3.9.q.q.V.v.w.N.V.F.F.V.V.q.x.E + + | <X4X3X]. XgX&.o Q A k B B c.!.G.v.w.y.G.G.v.] k k B s ( u o o     X o e ;.R.T.T.|.4XoX|.oX$X!.q.! ",
"A D A q o     X     X   p ~.-XOX9X{.x.q   : A G v ' !.3XH.0.H. XXXXX3XT U.*.E B o X   s ..2.1.>.8XsX8XK.T.9.+.@.@.@.#.1.1.3.9.9.q.A.J.w.1.u.V.F.y.9.c.&.,   i C.6XoX:X9X%X, o q M A B h %.~.R.8.8.8.q.1.q.-.k z z i &.E o % + X : * $ 9 %.~.R.{.Y.2.] { ! c l z ",
"A q +   o : 4 Z w o   @   *.oXoXoX%Xg.+   y X.] 2.$X3X[.#.O.L.oX XXX'.T fX4X*.Q 8 o = ^ *.4.>.>.sXhX>XJ.T.9.@.-.1.1.4.1.3.9.w.V.V.V.N.1.q.W.[.}.'.q.;.f.A = $ ~ {.9XoXyXd.      : p D B z ~.C.;.q.8.q.1.q.3.W Q ~ ~ g.:.> o + + M m q , = i ] %.W B D W W c x D ",
": X   : u B F =.^ k 5     , q.oX<X<X(   o 4 k x.4XoXoXF.#.`..X.X[.iXe.O.}.yX<Xz.k o p =.*.#.$.u.hXsX3XL.J.v.9.9.q.9.9.1.9.v.V.V.V.F.W.L.}.,XoX-X-XV.+.=.s.X.i > %.qXgX<XB         + q C k j.*.4.q.9.9.9.4.*.+.%.+.+.%.%.~ 9 o 4 M V S ^ G , o 9 k ( E W D D G k ",
"+ : y k B i ~ %.R ~ ( d <   , B } a.w     3 B } v.q.v.$.G.|.{.{.XX[.T L.[.wX~.W E = ^ =...*.O.F.hXfX0X[.L.w.9.9.1.q.1.9.0.q.v.F.J.oXoX|.4XrX9XhXlX5X1.;.;.<.} o B m.Q s : o   o u q < > p F / x.3.9.q.9.%.%.| ..[ [ ] W ] *.2.2.| } } Q &.p o o o : N F ^ H q % ",
"p D B g D ~ G.v.T T W ~ W a o     O   . O @ s E %.@.v.v.!.~.!.oX[.i.F.oX{.jXC.x p + F =.;.*.-.F.9XfXfXXXK.F.e.9.q.1.q.q.H.oX$X$X$X[.G.L.F.gXNXNXNXNX-X>.8.4.:., & N @       & ( s.z.c.g & 3 F =.3.x.-.O.%.%.%...| *.W ! 1.L.|.[.!.V.q.-.D D F +       2 5 @ o , ",
"k z / E ;.@X|.3XoXw.{ x D E F p +         + B | x.q.w.!.|.}.}. X XXX XOX:XgXv.U 9   & D 2.q.q.w.sXrXfXtX}.L.G.q.V.9.{.|.!.G.v.G.J.V.1.#.c @.V.V.V.G.|.J.1.4.f.p   o       o F D.b.G.I.*.z o 9 | *.] ] %.%.%...2.9.-.x.$X!.H.H.K.K.}.5X!.l %.| B o         , B k ",
"&.c.z.c.W *.{.|.oX4X<XZ.*.W D E A 4 o     o s | 2.1.-.i.}.}.}.+X+X].>XzXsXzX[.T 0     9 ~ 2.8.>.hXdXtXfX9XT.R.T.9.G.G.1.{ U v v l v l T ' ! ' U W W @.J.x.@.j.E o o       & E m.$XT.w.8.[ x = * G Q Q ] ] [ @.@.+.oX5XL.K.'.XX>X:X7X7X3Xe.O.] E %   X X X F =.G ",
"z.;.2.9.2.! -.|.[.T.|.,X,XU.<.W G G k ,   o B g.Y.C.F.e.'. XXXL.[.iXVX7XzXjXmXJ.k o   & D @.8.>.;XcXtX5XgX5X~.1.;.Y.v j j c k x z R ~ U ] ! ' ! ~ ] ' +.q.*.*.=.:       o p g.b.v.9X X8.q.3...o = F / ] ] [ ' @.O.J.[.[.9XrX5X3X7X>X>X8XXXO.@.i B 4     1 Q S.2.",
"9.9.9.9.v.G.8.L.T.{.oXW.[.|.|.1XC.] W x y o o k D.eX6X[.K. XP.b.4XuXz.v b.qXmXb.X.u     k ' 4.8.0.CXBX9X|.V.*.W 2.*.t x z D B z k z W W ~ W ! ~ ~ ~ ~ ! { *.Q X.u       o C Y.R.#.F.xX8X}.yXY.9 o + p &.' Y +.O.@.[.fXfX9X5X4X3X>X>X>X>X7XW.' j X.u X + s =.eXv.",
"9.9.9.9.T.q.-.@.#.#.1.>.@.L.|.,XgX9X{.3.=.=.< o a z.<XgX#.F.$X/.c.D i a 9 B } y w 2     q ~ *.q.A.!.J.9.] ! W ' ~ z z k k s s A B k z D E ~ ~ Q ~ ] ] ~ W ~ E o.5     o o $ R I.G.r.oXHXDXhXY.D +   o s | ' [ ] x.{.Y.J.R.~.#X6X9X9X8X:X3X4XL.{ ` s   < b Y.yX[.",
"F.1.q.8.{.L.F.F.w.8.#.8.O.$.L.[.9XfXgXSX%XE z : o 9 g.eX2.O...M M p , o o     +       X : Q *.c.3.' v U ! ' W W ~ Q D V V B M d B A B B B C G E E W ~ ~ W ` ^ u     & B u o o x G.{.T.fXAXcX<X&.%   X X s | } &.} z k z i > q F j.~.<X6X6X<X<XY.X.d   k ] 6X3X0X",
"}.7.w.L.}.}.}.}.oXoXoX[.L.8.e.[.3XfX8XbXwXi z k o o q h.^ k s u & o o , , + , : +       + F  .} Q } ..] ' W ~ ` E Q F V Z 5 # + : y B D V B B z z k v W ] } V o   . q | f.D % o z j.C.@X0XwXeX&Xd       o B  .^ Z u q + X         & y } j.Y.~.Y.D.M : G q.9X3X:X",
"i.F.'.XXXX}.[.[.[.[.oX[..X*XoXXX[.iXfXbXMXW k B p o   u B u ,   : D / z.S.| f.=.^ 5   X X , E Q ^ C p D ] ` ~ ` ] G s 8 o         X + < p C D D k j W ' [ k o   O . s =.m.h.E : o & 9 F v.$X#X/.A     X   & S w @ O             O         + ; : :   d U 6X5X9X8X",
"w.'.XX}.'.[.[.}.oX[.[. XXX X[.XX X:X8XZXVXj j D B q   o : o o i c./.~.#X~.G.C.-.| S   o o o q C 8 % o + k | } G s :                       & q s A H Q | C & o o   o B f.j.2.j.] 9 X   o $ e F :   X                       + + @ : 4 y s D } < o   @ ^ C.qXyX|.1.",
"!.|.|.[.}.XXoX.X.X.XXX'. XXX X}.}.'.sXHXVXR l j j C , o   % i ;.$X!.oX[.,XjX9.W ` ^ 3 o > g Q ~ %.] G q o : y %         .                       1 M K V @         o D z.9.8.8.9.4.a +           O o o o   % i z G Q ..<.j.j.x.B.J.L.J.[.|.Z.k o o m a.W *.2.t { ",
"A.F.H.|.[.[.[. XXXoXoXoX X[. X[.oXoXCXIXVXC.2.%.~ D B = < H D z.$XT.[.[.3XF.T ' D Q q , &.g.c.n.c.c.x.g.| s % o o     O                       X     2 @           X | g.3.9.1.1.3.<.H 1       o o     & A k.S.Y.Y.Y.I.I.Y.~.|.|.,XoX|.|.|.4.] o & u V a D j j.2X",
"4X!.#.q.oXoXXXXX X'.P.`.*X0X9X6X6X{.G.v.{.G.! ~ %.E ^ p p E W J.{.J.!.|.T.W ] D G < 9 g.g.z.z.x.v.C.c.c.C.S.z.~ a =       X               X               .         p =.x.3.9.9.3.3.<.| B ,   o o * F b.D.C.C.C.C.C.c.x.v.J.|.#X!.[.K.J.|.z.=.>   o 3 B D s z b.",
"*.6XqXN.J.[.[.}. XXXP.$.T ) T l f f ! j U 8.W W E F V = p k -.,XW.W.W.3XR.l D D , , j.x.x.9.9.q.v.N.x.9.b.v.C.R.Y.c.=.p +                 + : : : # +                 , } B.q.9.9.8.q.2.<.] i e | b.S.C.x.N.Z.V.V.F.V.v.w.w.V.[.}.W.K.|.,Xq.j.e   o   * q F B i ",
"a b ^.uXNXyXoX'.].].XXoXL.M.v.v.q.L.SX|.c l R R E B & o p x J.}.u.W.K.oX;.j k = o g.B.3.q.9.w.9.8.q.q.1.@.F.{.[.{.G./.Y.q           + , p } <.<.| X.=.e & *             + k c.q.1.8.8.q.9.4.*.-.U.I.v.v.J.F.F.V.v.F.F.V.V.F.0.y.W.K.!.!.{.4.<.B   o o   o & p S ",
"B k k *.1XSXAXrX7X:X X}.XXoXoX-X[.NXjXq.@.U z E s o o o a b |.}.>.K.K.!.v z ,   K B.3.x.9.9.e.0.8.0.q.G.L.t.L.[.`.G.J.R.a   X   4 m F G <.C.3.z.3.x.v.:.;.%.g %   X       + ..x.q.9.0.e.0.9.1.#.@.v.J.J.H.y.F.V.F.F.F.F.V.F.V.F.[.W.L.!.|.2.2.E $           o 3 ",
"& u B s j ' oXcXsXkX8X].].}.}.[.,XNXV.0.v ~ E q o X X   i G $X-XK.K.W.G.v x + w s.z.9.1.w.w.0.e.y.i.F.`.zXP.r.[.).`.[.|.W     + A Q D ` C.G.x.V.V.L.L.v.w.9.j.G =         X M } ` *.8.9.1.0.1.-.] v.T.L.P.F.F.V.V.G.V.V.V.F.F.V.W.}.[.[.|.2.2. .q   o           ",
"    : s D t Y rXrXsXsX8XtXfXgXNXNX4Xv.1.v G y X         u ..@XhX-X|.4Xv.W G + S a.C.{.{.L.L.L.[.XXoXoX).`.OXr.P.P.[.4XyX2.    : H x W x.V.q.F.w.w.F.3X9Xw.+.|  .q           # d k x ;.q.1.q.#.+.@.-.q.T.[.L.v.G.V.v.V.G.V.F.F.V.K.[.L.oX!.' G | m               ",
". .   o e v 4.9XsXdX8XhXgX6X$XG.-.G.b.W E <         .   : } x.-XcXhXgXv.W Q + : M v G.gXP.[. X[.'.W.L.[.K. X).K.P.[.9XjXV.o o w A x C.L.V.y.0.F.V.[.{.-.U ~ E ^ 2             X : k *.v.q.@.>.-.9.G.9.J.4X0XG.C.C.C.V.V.V.V.A.V.V.K.K.4XJ.*... .u o             ",
".     o o k +.NXrX8XfX4X-.U v D D | Q E ,   X     . .     y =.4.U.uXmX*.R i   + d k z eX4XOX3XoX}.L.'.`.[.). XK._.}.rXjXU.= & B B <.^.u.q.0.0.v.U.c.W W ] Q A K 2                 : D z.U.[ 4.3.2.x.*.+.] !.G.*.9.U.J.v.V.Z.N.V.u.K.!.|.W W ` s   o @ 2         ",
"          9 2.NXCXlXaX+.U ~ E K F S V ,                   X A <.X.f.D. .,       : M u g.$XoX:X:X8XXXW.L.K.L.'.'.'.:X8XhX!.0 = R U !.K.,.$.8.9.C.I.' c ~ W A B F :             X +   p a.F k A F H J H G x *.!.+.] *.C.U.J.v.V.G.V.p.|.c.F S u + + q A S &       ",
"          ; ..*.,XgX-.R D i , & @ & o o                     + d p B  .F o o o     7 S y C.5XOX:X:XsX8X3X3XoXXX'.XX>XsXfX[.j e W 1.|.P.O.>.1.q.C.] a x G k p , &             X o X o o A u , & @ + + # + 9 Q ~.x.@.+.+.-.G.!.G.N.V.p.!.Q ^ F + ; i i D Q p o   o ",
"          X q t c 9.W R = o o X                               X   o = $       X   : A k qXfXXXOX:X-X5X0X3X:X:X:X-X:XfXyX[.v B ] U.-XK.7.0.1.Z.-.j x k < % + X                 + < e F 9 $ o     X X X   , D S.G.*.-.;.-.@.v.!.L.H.}.1./ ( : o ` $X$XR.W z < o o ",
"            X , G f.G = o o + +     X                       + < ; i i p m m &       d y c.NX3XXX:X:XoXoXoXoX:X:XXX-XrXyX}.W a *.J.,X}.F.u.w.C.W k k %   X             o + , s A D =.g.v B q * +     X   % k j.U.*.*.4.1.1.1.q.N.V.L.W / 8 o i !.MXMX0Xv.2.k o   ",
"                < F * o +   K l.5                           M F B &.| |  .a.4       @ Q q.P.XXiX:X-X:X*XOXOX:X:X-X-X3XfX-X] e *.4.[.5X}.[.L.;.W D q   X             3 B F E Q j.%X#X;.! k B V m 2     o o V | v.*.*.1.-.1.q.v.9.0.0.*.k o e *.4X}.+Xr.!.eX%.,   "
};
