/* XPM */
static const char *parede2[] = {
/* columns rows colors chars-per-pixel */
"64 36 151 2 ",
"   c #13120F",
".  c #151512",
"X  c #191711",
"o  c #191815",
"O  c #1D1B19",
"+  c #201F1C",
"@  c #23211C",
"#  c #252424",
"$  c #292723",
"%  c #2C2A26",
"&  c #272728",
"*  c #2D2C2B",
"=  c #312E2C",
"-  c #34312D",
";  c #3A372F",
":  c #2F2F30",
">  c #343333",
",  c #3A3634",
"<  c #3C3934",
"1  c #363638",
"2  c #373839",
"3  c #3D3B3B",
"4  c #423E3B",
"5  c #444037",
"6  c #44413D",
"7  c #49453E",
"8  c #4C483D",
"9  c #3E3E41",
"0  c #403F40",
"q  c #444343",
"w  c #494643",
"e  c #4C4945",
"r  c #474749",
"t  c #4A4748",
"y  c #4C4B4B",
"u  c #514C46",
"i  c #514E4B",
"p  c #535147",
"a  c #5D5346",
"s  c #55514D",
"d  c #5A554E",
"f  c #5F594D",
"g  c #4E4E51",
"h  c #514F50",
"j  c #4F5053",
"k  c #545352",
"l  c #595653",
"z  c #5D5954",
"x  c #565659",
"c  c #57585A",
"v  c #5C5B5B",
"b  c #615C55",
"n  c #615E5A",
"m  c #666057",
"M  c #65615D",
"N  c #6A655D",
"B  c #6D685E",
"V  c #5D5E62",
"C  c #605F60",
"Z  c #656363",
"A  c #696663",
"S  c #6C6965",
"D  c #646569",
"F  c #686769",
"G  c #67686B",
"H  c #6D6B6B",
"J  c #726D65",
"K  c #716E6B",
"L  c #767066",
"P  c #7B7367",
"I  c #75716C",
"U  c #7A756D",
"Y  c #7F796E",
"T  c #6E6E71",
"R  c #716F70",
"E  c #757473",
"W  c #7A7672",
"Q  c #7C7975",
"!  c #757579",
"~  c #777879",
"^  c #7D7C7B",
"/  c #827A6F",
"(  c #827D75",
")  c #817E7B",
"_  c #858076",
"`  c #898277",
"'  c #82807D",
"]  c #85817C",
"[  c #8B8478",
"{  c #8A847C",
"}  c #8C887E",
"|  c #908A7F",
" . c #7E7E80",
".. c #857E82",
"X. c #838082",
"o. c #878582",
"O. c #818286",
"+. c #848486",
"@. c #858482",
"#. c #8A8680",
"$. c #898681",
"%. c #8F8B87",
"&. c #8C8985",
"*. c #8C8488",
"=. c #8C8689",
"-. c #88898D",
";. c #8A8A8E",
":. c #8E8D8A",
">. c #938C81",
",. c #948D82",
"<. c #958E82",
"1. c #918D85",
"2. c #948E85",
"3. c #958F87",
"4. c #938D83",
"5. c #988F82",
"6. c #90888D",
"7. c #908F8B",
"8. c #969085",
"9. c #979187",
"0. c #9C9385",
"q. c #91908E",
"w. c #97938D",
"e. c #94928E",
"r. c #94928C",
"t. c #9D9588",
"y. c #9F998C",
"u. c #969393",
"i. c #979592",
"p. c #959492",
"a. c #999696",
"s. c #999792",
"d. c #9C9A96",
"f. c #9B9995",
"g. c #9D9D9B",
"h. c #A09A93",
"j. c #A49F97",
"k. c #A39D92",
"l. c #A9A396",
"z. c #A3A19C",
"x. c #ACA699",
"c. c #ABA59B",
"v. c #A4A5A6",
"b. c #A4A4A2",
"n. c #AEACA5",
"m. c #ADADAB",
"M. c #B4AEA2",
"N. c #B1ADA3",
"B. c #BBB5A9",
"V. c #B2B3B1",
"C. c None",
/* pixels */
"C.C.C.C.C.C.C.C.C.C.C.C.C.C.C.C.C.C.C.C.C.C.C.C.C.C.C.C.C.C.C.C.C.C.C.C.C.C.C.C.C.C.C.C.C.C.C.C.C.C.C.C.C.C.C.C.C.C.C.C.C.C.C.C.",
"C.C.C.C.C.C.C.C.C.C.C.C.C.C.C.C.C.C.C.C.C.C.C.C.C.C.C.C.C.C.C.C.C.C.C.C.C.C.C.C.C.C.C.C.C.C.C.C.C.C.C.C.C.C.C.C.C.C.C.C.C.C.C.C.",
"C.C.C.C.C.C.C.C.C.C.C.C.C.C.C.C.C.C.C.C.C.C.C.C.C.C.C.C.C.C.C.C.C.C.C.C.C.C.C.C.C.C.C.C.C.C.C.C.C.C.C.C.C.C.C.C.C.C.C.C.C.C.C.C.",
"C.C.C.C.C.C.C.C.C.C.C.C.C.C.C.C.C.C.C.C.C.C.C.C.C.C.C.C.C.C.C.C.C.C.C.C.C.C.C.C.C.C.C.C.C.C.C.C.C.C.C.C.C.C.C.C.C.C.C.C.C.C.C.C.",
"C.C.C.C.C.i C.C.r C.C.H C.C.C.C.C.C.C.C.C.C.C.C.C.C.C.C.C.C.C.C.C.C.C.C.C.C.C.C.C.C.C.C.C.C.C.C.C.C.C.C.C.9 k C.C.r C.C.X.C.C.C.",
"C.C.C.C.3 s C.q 6 w C.y %.3.C.C.C.C.C.C.C.C.C.C.C.C.C.C.C.C.C.C.C.C.C.C.C.C.C.C.C.C.C.C.C.C.C.C.C.C.C.C.g 3 z C.q 4 e > H h.C.C.",
"C.C.C.C.1 M #.s l b C.y ] [ C.C.C.C.C.C.C.C.C.C.C.C.C.C.C.C.C.C.C.C.C.C.C.C.C.C.C.C.C.C.C.C.C.C.C.C.C.C.3 2 S C.s l n 3 F ,.C.C.",
"C.C.C.C.> v l s N b e i ] >.C.C.C.C.C.C.C.C.C.C.C.C.C.6.=.=.C.C.^ ) C.C.C.) ..C.C.C.C.C.C.C.C.C.C.C.C.C.1 1 M k l N z w M 8.C.C.",
"C.C.C.C.> r r w s e e n K ( C.C.C.C.C.C.C.C.C.C.C.C.C.n Z K C.C.k i x C.W F Z C.C.C.C.C.C.C.C.C.C.C.C.C.1 1 t q e i e i A ( C.C.",
"C.C.C.C.: 4 t t y x F Z K U C.C.C.C.C.C.C.C.C.C.C.C.C.' o.d.C.C.s 6 y C.w.^ H C.C.C.C.C.C.C.C.C.C.C.C.C.> > q t y h v H H W C.C.",
"C.C.C.C.# * 3 3 3 y s s d d C.C.C.C.F C.C.~ E C.C.C.C.H v K C.E F k I C.i.r.A C.C.C.C.p.a.C.E E C.C.C.C.# # = 4 3 3 y k l z C.C.",
"k C.C.C.r q v D v E E ] ,.J C.C.C.l l i C.V v C.C.C.C.v z M A I H l Z S U Q A C.C.C.Z F H C.x k y C.C.C.3 k r V D v E E 3.>.C.C.",
"C.C.C.C.x y x V R  .H ( y.C.C.C.C.b l s Z F F C.C.C.C.y q t i l Z v y z p p i C.C.C.F F K C.E G k C.C.C.x v g x V T ! F 4.x.C.C.",
"y C.C.C.c k V ! ;.;.K w.M.C.C.C.C.K n M E E l C.C.C.C.= e z z 6 e 7 y d l s q C.C.C.H E M K b.+.x C.C.C.j V x V T O.+.Z j.B.C.C.",
"y y 3 * c V D G E +.Q f.c.Q v n A W A d K ^ Z v D k 3 q ' f.r.W _ U Q 7.r.{ K z W K E H Z k Z Z x x g 3 r F V D F ! ;.Q z.9.l l ",
"y q 3 * x V V G ^ p.@.n.h.A n z b W J b E ^ E V v y 3 F b.o.E ) ] W I Q o.4.U s N A E Z V y x y y y y q r G D V F O.a.$.N.( s z ",
"H v i r y y y F +.%.%.{ t.J u 7 b { b f n ^ a.E q > r Z f.7.E ' #.] ' o.] r.Q s m z E E H X.+.F E G H E y k g y C $.%.1.9.` u w ",
"z y e 2 q k r F :.$.#.3.x.P u 7 d J z d s v H l 3 > 2 c +.^ E K o.g.g.i.g.b.w.z n y x Z F E E H ~ H A H 3 g k y Z $.#.#.k.,.u 7 ",
"2 > 3 > k v c E :.^ I d.M.J n d d d l k c F l 0 r q > E g.^ E I $.b.m.g.m.V.s.J n t k k v y k c v k y r q V v v Q p.@.Q c.>.s l ",
"y e q 3 k l c H Q J M { j.L u e z A z z l Z F v z t , A E Q Q A A Z #.` ` U A U U A M M v k i i l M z k y x l v I ) I S 9.,.u e ",
"7 4 - > q v v L L A v ] l.N 4 4 s l n n z l l l h q 3 W ' ] $.I Q I >.5.0.( J P ( Q K M l i y x k i e w , r v M W L M n 4._ 4 3 ",
"O O . O 3 s z b b l i >.>.- % , , = - 7 4 > = , * $ $ y y z E n w d I b s w 6 < e e 7 , * = , < = # + O @ 3 k v M n l k 9.z $ % ",
"# # & * * # < u s u 6 P Y s e z w 7 7 z z < , z e 6 , O . @ M i O * z , o $ < d l s q , 3 n v s 3 > * & * > $ 3 s d s w ( B w x ",
"q 9 3 * # o * , , 7 $ * M z Z I Z n M M M z n S S M y 6 - % n M < - k e , 7 z M n H H F ^ ^ n Z v y q 2 * & O = , , w $ < N z H ",
"3 3 2 : . . * # . = 5 % % 7 n Z K v A b s d b l W I s % + * e l i < w p 3 4 N A s Z E E f.+.v M H 6 4 , #   . * $ . - 5 $ < l Z ",
"t y q 2 * o   @ o @ - 4 M E o.%.) E ^ r.7.I Z n A A S n 4 % % % @ $ ; s l J L M v F W v l n A A A z k x y > o . @ o @ < z E ^ s.",
"4 g 0 > > * . . . o = k Z E ' $.Q H ^ r.r.I Z n M M S J s 4 * % < 8 f b z L ( H F K ' v l v Z K J M y c x q # . .   O y Z E X.p.",
"> g y > * > * $ % = , n F v z v n H K Z v M Z Z S J J J s < u 8 6 < 4 < 7 L Q K F w.w.H f.E Z F $.I 3 x k 2 > % $ * * i H E K F ",
"t c k y y y k e u z i k l c M F F H Z n A A E K N K U L A i B N b M N M W Q Z k v ) o.W %.Z l n W ^ l Z v y y y y M M A E ^ Z K ",
"r > 2 M ^ Z n z b M F H Z ] s.i.o.' %.d.%.} | L W A U ( ( M z s l ' s.o.f.&.I W o.H H ^ r.d.^ r.Q ) W Z F F F E Q f.d.f.#.p.p.z.",
"k x v A A A K ( ] U I %.S I W ^ #.K K J P / m M Q w.%.W ( Q W K W J U ] $.I K %.#.) E E W :.o.' W I Z W ^ H ^ E A ) Q i.%.W W P ",
"n A S I S M U ] L J K o.Q Q H Q #.A N b a b M U Q z.f.W Q #.w.( ( J U / U L o.g.] W A M v ^ b.7.I Q K f.b.w.$.) Q Q H 7.o.S J J ",
"A l b l b b b b d i s n Q Q E $.M 4 < u n S K W M K >.{ Y B L U A U ] B n M S A t e s z S A A N d e z M Q r.E E ^ E $.Q s e e M ",
"d s d u z b u d z s i z A A Z H s < 4 n H S b b z z L P B N J U J A L J A A I A i i z z M z d d d i l l H Q H Z H H K n 4 < e M ",
"w e i 4 z b 7 < i n z k c e > < 4 w y H E Z n b u u d d e M A N A b M K S S ) W W K S e d N B d z z k i l k c c c 7 - , 4 w i H ",
"l l M b e u w z A ] ( z A W K K E F v I %.S A M i w s M M b w < 7 z z b N n H K E K Z s K W I M M S K v y y v F A L S K K Z v E "
};
