/* XPM */
static const char *south[] = {
/* columns rows colors chars-per-pixel */
"64 64 249 2 ",
"   c #2B2D00",
".  c #242802",
"X  c #2E3102",
"o  c #333505",
"O  c #3A390C",
"+  c #373708",
"@  c #3B3B12",
"#  c #322F05",
"$  c #41390B",
"%  c #453D11",
"&  c #483D14",
"*  c #3F4012",
"=  c #494B08",
"-  c #4C5204",
";  c #545707",
":  c #4B4216",
">  c #4B441B",
",  c #47451A",
"<  c #53451C",
"1  c #54491D",
"2  c #555517",
"3  c #645B19",
"4  c #6B6D0C",
"5  c #646B02",
"6  c #6C7203",
"7  c #747A02",
"8  c #757909",
"9  c #676717",
"0  c #787817",
"q  c #73661F",
"w  c #4E4C24",
"e  c #584D26",
"r  c #5C532B",
"t  c #595327",
"y  c #5E5934",
"u  c #594934",
"i  c #63522D",
"p  c #655828",
"a  c #635C34",
"s  c #6A5B35",
"d  c #6C5C3A",
"f  c #665835",
"g  c #735D3A",
"h  c #785B37",
"j  c #614D23",
"k  c #696627",
"l  c #766C28",
"z  c #7C7B23",
"x  c #6B633C",
"c  c #66623A",
"v  c #74633C",
"b  c #7B633C",
"n  c #776A39",
"m  c #7D783A",
"M  c #5A6400",
"N  c #6D6442",
"B  c #6F6941",
"V  c #736543",
"C  c #7B6442",
"Z  c #746A45",
"A  c #7B6A44",
"S  c #756C4B",
"D  c #7B6C4A",
"F  c #7D734D",
"G  c #7F7247",
"H  c #7D7353",
"J  c #786D51",
"K  c #775F41",
"L  c #837B2C",
"P  c #82653C",
"I  c #867837",
"U  c #827F1B",
"Y  c #846C44",
"T  c #836D4B",
"R  c #876946",
"E  c #83724D",
"W  c #8C734C",
"Q  c #897845",
"!  c #94774B",
"~  c #886E51",
"^  c #837552",
"/  c #8C7553",
"(  c #837A54",
")  c #8B7A56",
"_  c #867C5B",
"`  c #8C7D5A",
"'  c #897559",
"]  c #927550",
"[  c #937A55",
"{  c #937E5A",
"}  c #997D5B",
"|  c #997B53",
" . c #906F48",
".. c #907D60",
"X. c #7C8402",
"o. c #7F8608",
"O. c #7F811D",
"+. c #7F8122",
"@. c #848C02",
"#. c #858A07",
"$. c #8B9401",
"%. c #8E9801",
"&. c #899204",
"*. c #939C00",
"=. c #969B0B",
"-. c #878718",
";. c #8E9211",
":. c #969918",
">. c #96A101",
",. c #9BA302",
"<. c #9EAA00",
"1. c #9BA209",
"2. c #9CA014",
"3. c #A5AD01",
"4. c #ACB602",
"5. c #A4A919",
"6. c #B2BB00",
"7. c #888728",
"8. c #989629",
"9. c #898438",
"0. c #948B3A",
"q. c #9A9435",
"w. c #928F2B",
"e. c #A49C3C",
"r. c #A4A52B",
"t. c #A8A638",
"y. c #B8B639",
"u. c #B0B02E",
"i. c #BBC500",
"p. c #8C8447",
"a. c #958947",
"s. c #9D9646",
"d. c #8B815D",
"f. c #888054",
"g. c #93825D",
"h. c #9B825C",
"j. c #998956",
"k. c #9C9556",
"l. c #A39E49",
"z. c #A2845D",
"x. c #A58B5A",
"c. c #A59756",
"v. c #A7A548",
"b. c #B8B543",
"n. c #ABA554",
"m. c #B5AA59",
"M. c #BBB35B",
"N. c #B0A845",
"B. c #8E8361",
"V. c #938463",
"C. c #9C8563",
"Z. c #958A64",
"A. c #9B8A65",
"S. c #978C6A",
"D. c #9C8C6A",
"F. c #98876B",
"G. c #9D916C",
"H. c #988B74",
"J. c #9D9274",
"K. c #A48561",
"L. c #A48A64",
"P. c #A98B64",
"I. c #A38E6B",
"U. c #AC8E6C",
"Y. c #A3926D",
"T. c #AC926D",
"R. c #AA9868",
"E. c #B4956C",
"W. c #B6996E",
"Q. c #B6986A",
"!. c #A59472",
"~. c #AC9572",
"^. c #AC9A75",
"/. c #AD9C7B",
"(. c #A79778",
"). c #B49672",
"_. c #B59A73",
"`. c #BA9C74",
"'. c #B39D7C",
"]. c #BA9C7A",
"[. c #B59478",
"{. c #AA8E72",
"}. c #ADA06C",
"|. c #B4A769",
" X c #B4A373",
".X c #BDA077",
"XX c #BBAC75",
"oX c #B4A27D",
"OX c #BCA37B",
"+X c #B8AA78",
"@X c #BEB476",
"#X c #BFB26E",
"$X c #C2A57C",
"%X c #C6AA7F",
"&X c #C3B57A",
"*X c #C5B878",
"=X c #C1B26C",
"-X c #AB9D81",
";X c #B29E81",
":X c #B4A383",
">X c #BAA482",
",X c #BCA984",
"<X c #BDAC8B",
"1X c #B7A689",
"2X c #BFB08A",
"3X c #BCAA92",
"4X c #AEA082",
"5X c #C1A683",
"6X c #C4AB84",
"7X c #C9AE86",
"8X c #C4AE8B",
"9X c #CAAE8A",
"0X c #C0A78A",
"qX c #C5B18D",
"wX c #CBB38D",
"eX c #C9B786",
"rX c #C5AD93",
"tX c #C5B493",
"yX c #CDB692",
"uX c #CEB994",
"iX c #CBB59A",
"pX c #CEBB9A",
"aX c #C5B298",
"sX c #D0B793",
"dX c #D1BA95",
"fX c #D4BD9A",
"gX c #D6BD9A",
"hX c #D0BD8F",
"jX c #CDB7A0",
"kX c #D4BCA3",
"lX c #D7BDA6",
"zX c #DABDB0",
"xX c #D6C19D",
"cX c #D9C29D",
"vX c #D5C197",
"bX c #D7C488",
"nX c #D6C4A1",
"mX c #DAC5A2",
"MX c #DCCAA5",
"NX c #DCC5AA",
"BX c #DECBA9",
"VX c #DFC9B1",
"CX c #E1CAA5",
"ZX c #E2CDAA",
"AX c #E8CBAC",
"SX c #E4D1AE",
"DX c #E2CBB1",
"FX c #E5D2B0",
"GX c #E9D4B2",
/* pixels */
": P W._.uXdXuXuX] yXMXfXuXyXcXtX) >XL.h.C.T.OXqX8XOXT.E Z 7XwXwXdXuXyXgXg.Z.SXnXgX<XC yXMXnXuXuXyXuXZX(.S.fXyXmXCXAXAXAXZXZXZX:X",
"% b _.E.OXxXuXuX/ wXBXxXuXuXcX2Xg.ZXMXmXMXMXMXMXmXfXcX:XZ 6XwXyXyXyXyXfXY.Y.ZXfXdX8XC '.BXmXxXuXuXyXAXS.+ d / g.g.F ( F B c r , ",
"% Y _.E._.dXdXuXW qXBXnXuXyXxX1XD.BXnXmXmXmXnXgXyXyXfX/.S wX7XyXyXyXyXsX/.!.mXyXfX>Xf _.SXMXMXmXdXdX*Xa.Y L.z.K.} < F Y < j Y y ",
": ] _.E.$XfXdXyXT wXMXmXfXyXxX'.!.ZXmXmXxXfXdXyXuXyXfX/.J dX7XyXyXwX9XwXoX!.fXwXcXT.t >XyXpXuXyXyX,X1.$.a.]._.yXwX/ I.$XE.6XcXS ",
"C T.W.`.wXdXfX<XT dXMXnXxXuXcX(.!.MXnXfXuXyXdXyXsXuXcXR.7.wX7XwXwX7X7X7X>XF.NXlXVX).8 o O w f J V 0 3.,.0 E.`.wXsX_.D.7XOXdXfXZ ",
"C.).`.7XuXuXfX+XQ BXnXnXxXuXdXa.k.uXuXuXyXdXyXyXdXxXaXq.%.6X7X6X7X7X7XfXeX9.M.M.b.r.7 x H.-X<XpX,X;.-.X.L ).OXsXsXOX/.MXfXfXCXZ.",
"C.`.6XdXcXcXAX^.a.mXMXBXxXmX6X<.$.}.mXdXfXxXcXmXZXeXq.Q t xXmXxXxXmXZXnXk = L 7.-.7.j.E.yXfXsXyXyXfX/.Z `.W..XxXwX5XA./.qX>Xd.c ",
"C.yXxXyX^.I.>Xr.*.l T I.~.^.t.3.*.z 1X8XuXpXpXpXpX@X,.k , ( -X-X1X:X!.s   e [._.[.`.W.7XmXgXgXcXgXMX7XC.`.E.wXdXwX9Xx F tX!.E i ",
"D ..' d e i L r.:.9.Z v C n 6 6 #.I h.z.L.T.~.I.E o.<.0 ].fX9XwXwXwX_.wX( j `.E.W.W.wXcXmXcXcXcXgXmX5XL.E.$XfXdXyXwX^ I.cXfX7XI.",
") C.U.5X) b wXfXyXfXcXxX$XcXy e I.`..X.X6XfXdXfX9X0.z p yXMXfXdXdXdXxXFX/.e `.6XwXdXdXdXfXgXmXgXgXmX).A.`.cXcXdXyXwX) ~.xXyXxX:X",
"'.FXBXZXoXI mXxXdXyXyXuXnXSXH.-XfXwXfXcXcXcXfXdXdXwXQ 3 ~.MXnXfXyXyXwXMX(.> `.fXdXwXwXsXyX6XfXZXCXcXD -XdXcXcXfXyXwX` '.cXwXmX2X",
":XBXxXfX+X;.uXMXnXuXyXyXdXmXv.c.1XqXfXfXcXcXcXfXfX@X<.@.I.GXZXZXMXcXfXCXZ.  v K.E.E.U.L.L.| C.Y.Y.a > 3XuXgXcXmXdXwXC.oXMXwXfXqX",
",XMXuXfXoX0 oXMXmXxXuXuXdXeX4.%.r T W T r x V N y O 6 8 ' Y.!.^.^.^.^.!.r = > + : : < V f _ 1X,X:XY.N rXsXfXmXxXmXFXI._.ZXyXfXqX",
">XxXyXgX X@.5XDXNXBXmXkXkXeX,.0.E.E._.L.e ` 5XT.P.R b b g b P Y W C.I.(.O.8.;Xh. .b R `.Y.).ZXmXcXcXq.qXuXfXxXxXgXZX!.I.ZXyXfX<X",
"'.dXyXgXx.1.|.&X*X6XXXM.=Xy.-.).W.`.uXyXE ^ mX6X`.W.W.W.`.6XwXsXfXfXxXjX7.r.kXfXwX`.W.7XD.'.fXyXuXuX8.qXyXgXxXxXfXNXb.,.eXnXdX1X",
"G.AXNXNXe.*.<.,.1.w.q.5.4.6.a.].E.$XyXsX^.f 9XfXwX5X.X6XuXdXuXuXyXyXdXrX-.r.kXdXdXwXOXfXg.qXdXyXdXmXt.&XyXfXxXxXcXDXu.*.XXmXfX'.",
"1 d.m.t.=.Q a.^.>XaXv.+Xm.6.w.[.E.OXdXyXoXV fXMXfXcXcXcXcXgXcXmXcXfXfXxXq.r.8XwXfXnXmXmXA.8XuXxXmXxX2.^.lXlXNXNXnXY.$.R.DXxXfX^.",
": I s.x.T.[.`.fXfXsX|.eXNXl.I ].E.6XfXwX5Xa x V.J.(.oXoX/.'.D._ _ ) D I ;.*.*.:.e.|.k.a.m pXmXBXBXkX5.5.y.b.M.t.5.4.5 C.MXxXcX_ ",
"b .X_._.W.W.dXmXgXcXMXcXcX>Xg.Q.W.dXyXwX7Xa e ~.tX,X<XoXL.z.[ w ~ R L.L.l %.<.%.%.o.7.k.D._.wX`.x.u.@.X.7 5 - L 8.i.#.d D ^ a X ",
"A W.W.`.OXsXcXcXcXgXxXxXmXOXa.c.wXcXdXyX9XV b wXfXdXdXfXcXE.sXd.pXdXBXZXa.*.=.}.+X,XlXxXe.t i l -.0 * . = o.p.N.lXt.=.U.P.h.g $ ",
"h .XwXuXdXuXdXdXfXmXxXmX*Xg.(.6XmXcXdXyXwXZ v cXpXuXuXyXfXxXMXZ.fXMXnXkXs.*.t.lXfXfXfXn.<.8 { fX3X3XA.{ Q 0 fXmXmXuX XsXwXsX9XY ",
"e ).sXsXwXwXwX9X.XsXcXMX|.l 3XfXxXcXfXwX9XD C MXxXuXuXuXsXxXMX/.pXmXxXfXl.>.=.7XfXdX7X8.;.9 L.vXuXdXdXW.P.=.y.hXmXmXmXfXfXyXwX] ",
"o t T h.| } ] W W h.C...0 *.^.gXfXcXcXfXfX) A cXMXxXuXyXyXfXMX:XxXmXuXgXc.$.@.t.fXdXuXkX!.& OXfXyXyXxXOXc.$.$.eXMXxXmXdX.X_.`.W ",
"t e $ : % < ^ x G.pXpXtXl.0 ,XfXgXcXgXmXFXd.h dXMXmXdXuXdXfXMX:XxXfXyXcXZ.5 I #.|.gXuXfXqXe 6XxXyXyXdXfXpXp.XXyXsXfXsXW.E.W.`.A ",
"_ yXE.z.| z.%XT..XMXfXfXfXH.iXyXgXxXcXgXBXZ.g 6XBXmXfXyXdXdXmX:XuXdXyXmX) $ ! _.wXdXuXdXyXs wXxXyXdXdXmXnXf.iXfXiXiXoXT.~._.P.1 ",
"( cXdXyX`.W.wXV.8XfXyXdXdXD.tXwXfXxXxXfXNXr.l '.BXmXmXdXdXuXfX^.yXdXyXcXG $  .OXdXdXdXdXuXD yXBXdXyXyXxXmX-.9 k.c.s.w.k > w , o ",
"A.cXyXdXwXwXdXV.wXsXuXxXmXH rXfXmXMXNXNXkX=.l '.MXxXmXxXuXuXuXd.wXsXfXdXv - 8.E.wXfXdXuXfX} wXBXfXdXyXxXxX+.X.X.7 q b W R Y R i ",
":XpXcXmXmXcXuXV.wXsXmXmXMXp R.bX*X#XN.b.r.*.4 yXSXMXMXmXuXfXmXB yXCXBXNXT @.:.T.OXfXdXuXxX} qXBXgXyXdXfXxXB.qX/.(.<XfXmXMXfX6X) ",
"+ + w Z F S H ^ cXBXBXgXs.o.o.&.@.>.%.@.7 - 2 ^.>XqXfXyXyX8Xd.+ ( oX@XM.5.4.-.U.E.7XfXuXxX[ ,XBXxXuXyXgXpXA.ZXBXBXBXMXNXnXuXmXJ.",
"x G _ S E '.nXD.L.~.[ b p o   o o 9 a.j.[ T T b s i t t t O O s d f 9 5 @.6.-.U.W._.dXdXfX[ ,XBXxXyXdXfXtXD.MXnXnXmXmXnXuXyXfXZ.",
"` :XZXfXfXdXMX( O g ^ S c , , , o ^.AXZXfX.X6X$X`._.} 1 o E [ T T T C u 4 3.L ).E.W.dXdXfX' >XBXmXfXyXfX8X!.BXnXmXnXgXuXuXuXdXS.",
"v '.dXuXdXyXCXZ % ).MXfXfXOXT.{ s cXxXfXmXdXuXyXdXdXfXh.r uXOXz.K.K.K.! *.>.Q `.E.$XxXdXuX~ 5XBXmXgXuXxX1XT.MXmXxXyXyXuXuXyXfXS.",
"1 ).fXuXdXyXmXF : OXdXyXuXxXQ.`.Y.cXxXxXxXxXfXfXyXwX9X} x wXOXP.P.L.U.p.*.1.L.`.OXyXdXdXyXT wXMXmXxXuXxX'.Y.xXfXdXdXdXyXdXfXgXE ",
"& L.sXuXdXuXcXG.< yXfXyXyXfXwXyXoXcXfXcXgXmXmX5XE.E.`.] F dX5XU.P.L.U.! %.=.R..X7XsXdXfX,XD xXMXnXxXuXgXR.a.mXuXyXyXyXyXdXfX5Xv ",
"& | wXdXuXuXfX1Xi fXxXyXdXdXMXpX/.cXwXsXdXfX$XW.`.`.$XY _ fXyX>XL.P.P.} ;.>.0.sXxXfXiXDX-XE CXNXBXnXfXlXk.%.l.fXgXlXnXnXZXfXE.E ",
"< ! 5XdXdXuXfX<XC xXmXuXyXyXxXxXa /.pXiXtX<XI.A.C.A.h.& _ fX9XgXT.z.z.>Xq.,.&.q. Xk.9.c.m x q.r.XXM.M.m.<.6.,.|.XXn.n.*X&Xn.c.v ",
"1 ! OXdXdXdXdXyX/ fXMXfXyXyXxXnX@ + a N S V r < & > 9 6 m 9XwXfX5Xz.9XfX-.>.3.$.X.@.@.7 5 2 = *.4.*.-.z z +.7.-.8 8 8 4 9 4 4 ; ",
"1 R W.wXdXdXdXdX[ uXMXfXyXyXxXtXF T.[ ] [ C.~.OXoX_.L.q.#.oXwXyXfXsXfX XX.4 4 a. Xz.P.L.U.].T o.@.Q aXkXiXaXiXiXtXaXaX].U.].tXa ",
"< P W.`.fXdXdXfX/ wXMXxXyXdXcXqXV.ZXMXmXmXMXBXBXBXxXfX*X$.W.wXyXsXyXfXR.$.z yXcXBXfXfXfXfXfX5X9 3 wXBXxXfXdXdXdXfXdXfXcXmXmXFXS.",
": h ).E.6XfXdXdXQ qXBXxXuXyXcX,XA.BXnXmXmXmXnXxXuXwXfXXX@. XwXyXyXyXfX X@.=.yXmXgXxXfXfXwX6X`.b h ].MXmXmXnXfXyXyXyXyXyXfXnXBX(.",
"% P _.W.`.dXfXhXQ qXMXmXfXyXNXM.t.BXnXmXnXfXfXuXuXsXiX+X7.yX7XyXyXyXwX,X2.=.uXmXcXcXmX5XE.W.W.v Y R dXnXnXmXmXfXuXuXuXyXuXdXmXD.",
"% R `.E.`.fXdXeXQ yXMXmXxXdXn.,.u.nXxXxXuXyXuXyXdXyXgX|.w.yX7XwXwX7XwXc.>.w.fXyXdXfX7XW.`.`.W.1 v K.MXFXZXZXAXFXSXmXxXcXcXcXmXB ",
"i z.`.W.wXfXdX8XL xXmXnXxXuX}.;.t.kXuXsXyXsXyXyXdXfXyXa.p.fX$X6X6X6X8X8.>.m kXxXfXiX^.` ` A.A X > E ) ` D.D.A.Z.D.Y.Y.Y.V.H a o ",
"} _.W.6XuXuXfX,XO.vXZXBXnXfXDX2.t.lXdXfXfXfXgXxXmXuXE.[ x SXCXcXcXCXkX;.3.- y H S N f S H oXK.Y b Y W h.!.+ @ _ !.1X<X<X1X:Xd.o ",
"C.W.OXwXfXcXmX+X$.I g./._.oXJ 4 2.>XqXeXeXxXmXmXmXpX,XA . c S.J.:X4Xk.1.>.9 ^ !.g.{ 0XZX/.,X7X`.6XgXmXNXjX2 0.sXSXZXMXmXxXcXfXw ",
"C.9XcXcXaX0XzXv.*.2 t 0 U r   O >.&.0 -.9 N x y y y ,   e i i g h b 7 <.6 T '.mXgXfXdXcXD.,XMXyXeX*X*X=X#X:.-.`.xXfXyXyXuXyXfXZ ",
"{ /.!._ 9.8.9.;.,.,.1.%.a.W.} 2 7 L 2X1X1X<X'.h.h.U.{ X g.sXT.).6XfXR.7.p.~ ~.dXuXdXyXmXd.t A.^.9.9.0 @.X.M I cXdXyXuXsXdXfXfXZ ",
"V.' $ O 3 6 0 #.0 w.8.8.c.W.].n X.L.cXxXsXsXfXfXW.x.wXt ` GXMXBXMXMXBXpXmXA C.fXuXdXyXmXZ.# h.fXaXrX(.h.{ @ '.fXuXuXyXuXxXMXmXv ",
"/.`.W P R / [.n C 7XiXyX).W.`.a X.R.dXuXyXyXyXcXwXP.CXx Z.ZXnXnXmXmXdXyXfXV ] dXuXdXuXcX:X> ).fXuXsXcXE.$Xa /.fXyXsXfXmXmXmXmXa ",
"oX$X_.E..XwXCX` Y 6XyXdX`.E._.m @.oXmXyXsXsXyXdXxXxXGX( Y.SXnXmXnXfXuXuXpXV R 7XdXuXdXdXqXr OXxXyXyXfX6XdXy '.fXyXxXmXmXMXMXpXw ",
"/.wXU.OXfXuXfX^ ] 7XsXfXdX`.~.a.%.}.ZXuXuXdXdXdXfXmXZXG.~.ZXmXfXyXyXuXuXfXZ R $XsXdXdXdXuXd 9XxXyXfXdXmXBXy ,XcXmXZXBXmXdXmXdX> ",
"I.cX$XyXfXuXxX` [ 7XyXfXmXfX>X7.7 ,XZXxXdXyXyXuXdXxXZX/.~.mXfXuXdXyXyXdXyXg Y `.uXdXdXdXfXT yXmXuXyXuXxXBXa } OX6X5XT.} W W / @ ",
"~.gXdXdXuXuXcX(.} $XfXcXcXfXgXJ.i 6XBXmXgXdXdXyXyXxXZX:X^.fXyXyXdXyXsXcXOXi h W.7XfXuXuXxXC.wXBXfXyXyXfXBXe < f i f f i < % O O ",
"/.MXxXfXxXdXfX:X~.MXcXcXmXfXdX1Xg _.BXnXmXdXyXdXyXfXZX/.V.NXfXyXdXdXmX7Xx.s h E._.dXdXuXxXg.qXBXgXyXyXfXxXF { E T / h.T.T.P.h.A ",
"r ( !.8X>X;X<X^ >XmXgXgXcXfXsX3XK K.MXmXmXfXsXsXyXdXZX1X0 t.+XZXNXMXBXnX`.L h E.E.OXxXdXxX[ 5XZXxXyXyXfXpXZ.ZXnXfXxXMXZXZXmXfX:X",
"E A.<X/.^.yXZX( g.AXMXmXmXfXfX1Xd [ mXmXmXxXyXdXdXdXBXtX>.>.7.oX*XeX*X*Xv.#.h W.W.W.uXdXfX[ >XBXnXuXyXfXtXA.MXnXMXMXmXnXfXyXfX:X",
"^ '.cXfXfXuXMXF + p.W.wXdXxXuXc e ] dXMXMXmXuXdXyXdXpX8.>.>.6 3 0 0 o.X.5 - P `.E.`.fXdXfX/ >XBXmXfXyXfX<XY.ZXnXmXxXfXdXuXuXsX:X",
"i '.dXuXuXuXmXf.X.9.` Z.Y.^ x @ ; Q rXMXnXmXxXuXdXdXdXa.; 7.I ~ T T C d # e L._.).wXfXdXuXT 7XBXmXxXuXfXoXY.MXnXfXyXyXyXuXyXfX^.",
": T.dXyXdXuXlXv.-.{.CXuXyXoXU.C.4 I 8XMXnXmXmXfXdXuXcX:Xe iX5XK.K.P.K.P.r E _.W.6XyXyXdXqXT sXMXmXnXuXcX!.A.cXuXuXuXdXyXyXfXfX[ ",
"& z.uXdXdXuXkXv.-.'.dXyXuXxXE.>X7.I rXMXnXmXmXxXuXuXxX^.c sX.XL.P.L.P.U.d E `.OXwXfXcXCX1X/ ZXMXMXmXdXkXt.%.c.fXuXdXdXfXnXfXE.} ",
": | 7XdXdXuXgX|.-.rXfXyXyXdXdXqX%.I fXMXnXnXmXxXuXyXmX!.Z fX6XU.P.P.P.U.N E sXcXxX9X>XfXS.i Y.oXyXqXyX1X5.<.-.,XfXmXmXmXmXnX6XE ",
"< ! $XdXdXdXfXwX7.fXfXyXdXdXMXkX;.s.kXmXMXBXMXfXfXcXfXN ( fXwX5XK.P.K.P.A V (.D.D a i C N r a d v ) E 8 %.*.7 ) I.T.T.~.D.E r X ",
"1  .`.dXdXdXdXwX0.gXmXuXyXyXxXkX0 :.j./ g.Y.Y.Y.Y.) @ . d.dXwXgXE.} K.9X^ s ' / I.T s ].cXfXfXdXwXE.6Xn , p.j.`.W.`.wXwXwX7X~.a ",
"1 Y W.7XfXdXdXfX} fXMXfXdXyXxXfX2 4 9 > e i i f r : 1 $ D wXwXfX5XL.wXmX/ g.ZXmXSX<Xv dXxXyXyXdXfXxXSXD._ rX7XyXfXcXcXdXyXyX7X!."
};
