/* XPM */
static const char *west[] = {
/* columns rows colors chars-per-pixel */
"64 64 141 2 ",
"   c #4D3927",
".  c #4D372A",
"X  c #4E392A",
"o  c #523727",
"O  c #543D27",
"+  c #5A3D27",
"@  c #51372A",
"#  c #58372A",
"$  c #543C29",
"%  c #5A3D29",
"&  c #4D3C32",
"*  c #523D31",
"=  c #5B3F31",
"-  c #653B26",
";  c #6C3E27",
":  c #633C2A",
">  c #6B3E2B",
",  c #713F2B",
"<  c #783F2A",
"1  c #574027",
"2  c #584027",
"3  c #574028",
"4  c #584028",
"5  c #554030",
"6  c #5A4230",
"7  c #634127",
"8  c #6D402B",
"9  c #74412C",
"0  c #7C422C",
"q  c #6C4332",
"w  c #754632",
"e  c #7A4735",
"r  c #7A4832",
"t  c #83442D",
"y  c #8B462D",
"u  c #85492E",
"i  c #8D492E",
"p  c #91472D",
"a  c #93492E",
"s  c #9C4B2E",
"d  c #854530",
"f  c #8C4730",
"g  c #854931",
"h  c #8D4830",
"j  c #944730",
"k  c #934931",
"l  c #9B4B31",
"z  c #9E5238",
"x  c #A44D2E",
"c  c #AA4E2F",
"v  c #B24F2F",
"b  c #A5502F",
"n  c #AC502F",
"m  c #B5512F",
"M  c #BD542F",
"N  c #A34D31",
"B  c #AB4E31",
"V  c #A94F32",
"C  c #AC4F32",
"Z  c #AB4E31",
"A  c #B54F31",
"S  c #B14F32",
"D  c #A15237",
"F  c #A75030",
"G  c #AE5237",
"H  c #AC5032",
"J  c #A8563C",
"K  c #AD573C",
"L  c #AC543F",
"P  c #B15131",
"I  c #B05133",
"U  c #B55230",
"Y  c #B45331",
"T  c #B55331",
"R  c #B75330",
"E  c #B45032",
"W  c #B55332",
"Q  c #B55233",
"!  c #B45232",
"~  c #B95331",
"^  c #BC5231",
"/  c #BC5331",
"(  c #BC5332",
")  c #B95432",
"_  c #BF5530",
"`  c #BD5532",
"'  c #BE5434",
"]  c #BE5535",
"[  c #BB5432",
"{  c #B15836",
"}  c #BF5836",
"|  c #B5563E",
" . c #B35438",
".. c #BE5839",
"X. c #C5562F",
"o. c #C15431",
"O. c #C15531",
"+. c #C65731",
"@. c #C65632",
"#. c #C05734",
"$. c #C45634",
"%. c #C35633",
"&. c #C95532",
"*. c #C85635",
"=. c #CA5633",
"-. c #C65A33",
";. c #CC5832",
":. c #CD5834",
">. c #CF5934",
",. c #CC5934",
"<. c #C65D3B",
"1. c #CB5F3A",
"2. c #D05733",
"3. c #D55932",
"4. c #D65A32",
"5. c #D35A34",
"6. c #D85A32",
"7. c #D95A32",
"8. c #D95B33",
"9. c #DB5D33",
"0. c #DB5C36",
"q. c #DE5E35",
"w. c #DB5C34",
"e. c #D15B39",
"r. c #DC5D38",
"t. c #E05D32",
"y. c #E25F33",
"u. c #E35E35",
"i. c #E25F36",
"p. c #E65F34",
"a. c #E65F37",
"s. c #E25D35",
"d. c #E85E35",
"f. c #EB5F35",
"g. c #F05F34",
"h. c #E46132",
"j. c #E76035",
"k. c #EE6033",
"l. c #EB6034",
"z. c #E06038",
"x. c #F26135",
/* pixels */
"4 5 e <.g = q G L q * * 5 3 4 4 4 4 * = J w 3 4 4 4 4 6 4 4 4 4 4 4 5 = K e & 6 D | q $ 6 * r z = 4 4 6 3 w 1...8 5 4 4 4 4 6 6 ",
"4 O o s 8.&.' h # . o O O 4 4 4 4 O X o V y # 3 4 4 4 4 4 4 4 4 3 1 o @ n ~ y l j % o O 1 o > C # O 2 4 % # 9 @.M 8 O O O O O O ",
"% : > s k.h.y @ o O O 4 4 4 4 4 4 3 X X N s o O 4 3 O O 3 O $ $ o o X # Q j.H > @ X % % 4 $ % ! > $ 2 4 4 O X > *.:.t # # % + # ",
"' @.$.Q :.y.t . O 4 4 4 4 4 4 4 4 3 o . s a . O O o X X % 0 u y p s x ' y.N # o O 1 3 3 4 O o V f X 3 3 4 4 O @ t j.q.~ Q ' Q I ",
"N a 9 # : / o.% O 4 4 4 4 4 4 4 4 4 $ . s ! # . . @ : y @.z.u.w.3.8.w.f.8.: O O 2 4 4 4 4 3 X h ! # O 3 4 4 4 O % >.o.s x a y h ",
"@ X X X . 9 3.0 $ 3 4 4 4 4 4 4 4 4 $ . l p.A j y y l ~ Q l t 9 > : > t ' t O % 4 4 4 4 4 4 o > $.> O 4 4 4 4 O # Q j   o o . . ",
"$ 3 4 O o # @.j X O 4 4 4 4 4 4 4 4 X . N x.x.2.y % # # # $ X $ $ $ . . x N O 4 4 4 4 4 % % $ o ! y o 4 4 4 4 4 # n j o 3 3 O o ",
"3 4 4 4 $ # o.N X O 4 4 4 4 4 4 4 O . > ' ' N , # $ O O 3 O 3 4 4 3 $ . i N O 4 4 4 4 4 % % 1 X y N # 4 4 4 4 4 # N l $ 4 4 4 O ",
"3 4 4 4 $ # &.x X O 4 4 4 4 2 O $ o > G u # o O 4 3 3 3 4 4 4 4 4 4 $ . 0 N o O 4 4 4 4 4 4 1 X 9 H # 3 4 4 4 4 o l l o O % 4 O ",
"3 4 4 4 o % 2.l . O % 4 4 % 3 $ . > -.V # $ 3 1 3 3 4 4 4 4 4 4 4 4 O . , H # O 4 4 4 1 2 1 $ . > H # O 4 4 4 4 o l l X O 4 4 3 ",
"3 4 4 4 o % 2.N @ o O 4 4 4 % X o V T + $ O O 3 4 4 4 4 4 4 4 4 4 4 O X : H % O O O O # O % # # y Q # X O 3 4 4 o a l X O 4 4 3 ",
"3 4 4 4 o # &.&.# X O 4 3 3 O . 9 :.9 . X X o o O O O O 2 4 4 4 4 4 O . : H % X # > i H Q Q H ~ w.7.j 9 : o $ O $ t l @ O 3 4 3 ",
"3 4 4 4 O . a u.t X O 4 3 $ . : / g.o.s y t , # X X X X O 2 4 4 4 4 O X % N % > C $.' Q 7.x 0 t y N I o.$.N > o . > N # o 3 4 3 ",
"3 4 4 4 3 $ % ' ! # $ 3 $ X 9 ' 2.c m 2.9.w.5.[ t # o . . O O 4 % 4 O . : s y @.x 9 % # N t X O O o # : 0 V o.i # # H y o 3 3 O ",
"3 4 4 4 4 1 X 0 ;.8 X X # l w.,.9 o @ : , 9 0 o.f.&./ N > . o O O O $ . > ,.>.y o O $ X 0 s O O 4 3 O O # # 0 [ H 9 m o.# $ O O ",
"$ O 4 4 2 4 O # Q i . % ! q.H > o O o . . X . u j.6.2.f.5.t . X X X X . 0 u.l o O 4 % O : ~ > O 4 4 4 4 % O o % t N q.3.: . . . ",
"# X o O O $ X . j N @ s 5.u X o O 4 4 % O 3 X : 5.j % y 2.6.u . . # # > Q Q % $ O 3 4 O o V c # O 4 4 4 4 2 O $ o % m s.0 # > 0 ",
"G t : : : o X . y l , ,.y @ o O 3 4 4 4 4 1 O # V y X o > N -.b h l Q o.N % X 1 % 4 3 3 $ 0 5.9 O 4 4 4 4 4 4 4 O o s f.o.~ 2.*.",
"j [ :.5.5.~ l s &./ @.N # O 3 3 4 4 4 4 3 4 % X l f $ 3 O # 0 2.$., , : o o 3 1 4 4 4 3 $ : &.y O 4 4 4 4 4 4 4 O # ' ;.9 j u : ",
"X % t a a i i s 5.x.' % O 2 4 4 4 4 4 4 3 4 O o H i $ 3 4 $ X a $.# . X $ 3 1 3 4 4 4 3 3 o b a o 4 4 4 4 4 4 4 O 9 5.i . X o $ ",
"$ $ X o o X . @ S 2.8 $ O 4 4 4 4 4 4 4 4 4 O # T a O 3 4 O   > 5.i o 3 3 O % 4 4 4 4 4 2 $ i a o 3 3 4 4 4 4 3 # x o.% O O 3 O ",
"3 4 3 4 3 $ . 0 :.u o O 4 4 4 4 4 4 4 4 4 4 O o x C # % 4 4 O o ~ &.% O 4 4 4 4 4 4 4 4 4 o a N X O 3 3 4 4 4 O : @.u $ 4 4 4 3 ",
"3 4 4 4 3 $ o [ v o $ 3 4 4 4 4 4 4 4 4 4 4 O . 0 ' % O 4 3 O o 9 5.0 O 3 4 4 4 4 4 4 4 2 o N 2.8 o o X O 4 % o a [ # $ 4 4 4 3 ",
"3 4 4 4 % o % :.c # O 3 4 4 4 4 4 4 4 4 4 4 3 X : ' : O 4 4 2 O o l f $ 3 4 4 4 4 4 4 4 O # Q >.H l l y > $ o % ' j o O 4 4 4 O ",
"3 4 4 % % O # ~ 8.8 O 4 4 4 4 4 4 4 4 4 4 4 4 $ % [ 8 O 4 3 1 3 o 9 h # 3 4 4 4 4 4 4 4 O : ~ 9 % t ~ 5.,.l 0 V #.: O 4 4 4 4 O ",
"3 4 4 % % % o t q.s @ O 4 4 4 4 4 4 4 4 4 4 4 o # H 8 $ 3 3 2 1 $ : l # $ O O 3 4 4 4 4 $ 9 ,.> $ $ # 8 u C w.:.9 O 3 4 4 4 4 3 ",
"3 4 4 4 4 4 $ o ! &.# $ % 4 4 4 4 4 4 4 4 4 4 $ # H 0 X 3 4 2 2 $ : ~ 0 o . . X o $ O O X y o.: O 4 1 O $ # N H # O 3 3 3 4 4 3 ",
"3 4 4 4 3 O X o C p.9 $ % 4 4 4 4 4 4 4 4 4 4 O o x s o 3 4 2 3 X > 7.7.! a 0 > # . . X . j l # 3 3 4 4 % $ : ! t $ 3 3 4 4 4 3 ",
"3 4 4 O X X : l $.u.V o $ O 4 4 4 4 4 4 4 4 4 O . i ' % O 2 2 $ % N ~ N @.p.f.w.o.x 0 # # V t $ 4 4 4 4 % O o 0 ' 9 o O % 4 4 3 ",
"3 3 O o o 0 *.x : u @.9 . o % 4 4 4 4 4 4 4 4 O . 9 e.9 $ 2 O # N o.: @ % u ! >.y.s.u.@./ w.9 X O 4 4 4 4 3 O o l ' > X O 4 4 O ",
"o $ X # i w.Q # . . y T : . O 4 4 % 4 4 4 4 4 O X # $.s O 4 o 9 ' 9 $ 3 O o o % 8 0 a n $.u.Q > o o % 4 4 1 3 $ # H Q % X O 3 O ",
"# o : x :.s % X X . o H ~ : . O % 4 4 4 4 4 4 2 $ X x o.: O # s u $ 4 4 4 4 O $ $ O $ o # 0 ! :.Q 9 % 4 4 4 3 4 $ : ! H % X o X ",
" .~ @.' 9 @ $ % O O X > 5./ > . $ O 3 4 4 3 4 4 O X 9 >.9 X > N % O 4 4 4 4 4 4 4 2 % % O o + y 3.>.> $ 3 3 4 3 3 X % ~ N # o 9 ",
"N s t % o O 3 3 3 4 $ . u 7.:.0 . . $ 2 2 3 4 4 4 O # ~ s . g t O 4 4 4 4 4 4 4 4 4 % % 4 3 O o 9 ;.l # # % % O % % : V f.~ H  .",
"o $ $ O O 2 4 4 4 4 3 o . 9 &.9.a # X O 2 4 4 4 4 % X g ,.u N : O 3 4 4 4 4 4 4 4 4 4 4 4 4 3 $ X s u.~ Q ~ H n m o.:.s.f.x.X.: ",
"O 3 3 4 % % 4 4 4 4 4 $ . . 0 9.l.S : X O 4 4 4 O $ . % @.f.M # O % 4 % 4 4 4 4 4 4 4 4 4 4 3 O # T @.y N l 9 0 u y y t t o.c @ ",
"O 4 4 4 4 4 4 4 4 4 4 3 $ X . u 3.k.o.> o O O $ X @ : a 7.p.5., X O % 4 4 4 4 4 4 4 4 4 4 4 O o t >.9 $ O # $ O $ X X X X 9 C # ",
"O 4 4 4 4 4 4 4 4 4 4 4 % O @ . > >.x.&., o X . > N ;.' u 9 l Q 8 @ o O O 4 4 4 4 4 4 4 4 3 $ # T s o 3 2 2 2 4 4 % % 4 $ O N , ",
"X O 3 4 4 4 4 4 4 4 4 % 4 4 O X . N 8.f.5.l y N 3.q.x : O $ o y $.y # . X # O 4 4 4 4 4 4 O X u $.: O 2 4 4 4 4 % % % 4 O o l N ",
". X 3 4 4 4 4 4 4 4 4 4 4 4 3 o X y 9 l 5.' s s l 0 % O 3 O $ # a 5.~ 0 # . o O 4 4 4 4 2 o % ' h o + 2 4 4 4 4 4 4 4 4 4 X t e.",
": X O 4 4 4 4 4 4 4 4 4 4 4 2 O . 0 9 o : % # O O O O 4 4 4 3 O o , ! 5.Q > . O 2 4 4 4 3 o y Q % O % 4 4 4 4 4 4 4 4 4 3 o > 5.",
"l o $ 4 4 4 4 4 4 4 4 4 4 4 4 O @ g i O O O 3 3 4 4 4 4 4 4 4 4 O O # t 5.2.9 o $ O 3 4 O % ! t O 4 4 4 4 4 4 4 4 4 4 4 3 $ # T ",
"$.# O 4 4 4 4 4 4 4 4 4 4 4 4 O o l a O % 4 4 4 4 4 4 4 4 4 3 4 4 2 O . 0 y.3.0 X X $ O X u l # 3 4 4 4 4 4 4 4 4 4 3 4 3 1 o l ",
"[ # O 4 4 4 4 4 4 4 4 4 4 4 4 O o l a $ 4 4 4 4 4 4 4 4 4 4 4 O 3 3 # : l >.q.5.t . . X > G 8 O 4 4 4 4 4 4 4 4 4 4 3 3 3 3 o j ",
"N o $ % 4 4 4 4 4 4 4 4 4 4 4 O . t l $ % 4 4 4 4 4 4 4 4 4 3 3 O o 9 I y : , s $.N u s ~ h # % 4 4 4 4 4 4 4 4 4 4 4 4 3 3 @ j ",
"h . X O O O 4 4 4 4 4 4 4 4 4 4 o : s + O 3 4 4 4 4 4 4 4 4 3 $ . 9 ' t o $ $ # > s 8.x.V O % % 4 4 4 4 4 4 4 4 4 4 3 3 3 3 X u ",
"N # # @ . X $ O 4 4 4 2 4 4 4 3 $ % F : O 3 4 4 4 4 4 4 4 2 O . > ' a # O 3 4 % O o y l.x # % 4 4 4 4 4 4 4 4 4 4 4 3 4 O o o h ",
"u.,.@.H 9 @ . X $ O O O O 4 4 3 O : ~ 8 O 3 4 4 4 3 3 3 O $   : H l # O 3 4 4 4 4 O % ~ 8.9 # % 4 4 4 4 4 4 4 4 4 4 O o o > l 5.",
"/ ! 7.x.s.N : . . . o @ . o $ $ o # o.9 X o o o o O # % > 0 a I a # O 4 4 4 4 4 3 3 O : o.@.> $ 3 O O O O 1 1 3 O $ # 9 j h 0 a ",
"y o , ~ u.u.$.V N V ! N y > # . . # X.N > , 9 y s c ~ &.8.~ j 9 # O 4 4 4 4 4 4 4 4 % o > 2.m # O : : % # # # % 8 i ! Q t O X # ",
"d X o # , 9 i ' u.f.s.7.f.5.H y 0 t 3.f.w.u.q.>.5.f.w.>.p.x @ O O 4 3 4 4 4 4 4 4 % 4 O $ H d.! V @.,.$.! x x ~ $.N t 7 O 3 o 0 ",
"> O 3 O O O $ # < y 9 , ;.5.u h b ! V s j j t > l ~ > % y T 0 o O 3 4 4 4 4 4 4 4 4 4 4 O a x s y 0 t f j s x 5.s O O 3 3 O % [ ",
"# 4 4 4 2 4 3 O O O $ . h ;., o O 4 # $ o X 9 H l : . X X > l 8 O 1 4 4 4 4 4 4 4 4 3 4 O y 9 O $ O O O O O O y 0 $ 3 4 4 O 0 u.",
"o 4 4 4 % O 4 4 3 3 3 $ # a ~ 0 $ 3 O o o 0 Q y # X $ O $ . > N 8 O 4 % 4 4 4 4 4 4 4 4 $ j i O 3 4 4 3 3 3 O y t $ 3 4 2 O p j.",
"O 4 4 4 4 4 4 4 4 4 2 1 O o x &.: O # , l l > o o O 4 4 3 o . 0 H : % % 4 4 4 4 4 4 4 3 $ a b % 4 4 4 4 4 4 + s g O 4 4 3 $ u z.",
"o O 4 3 4 4 4 4 4 4 4 4 4 $ 0 7.t . > o.a % O % 4 2 4 4 3 O @ o l j O % 4 4 4 4 4 4 O 3 o 0 ~ : % 3 4 4 4 4 + N t O 4 4 4 O 8 e.",
"9 o O 3 4 4 4 4 4 4 4 % % O O i H y o.~ # O 3 4 4 4 4 4 4 4 $ . > T 0 O 4 4 4 4 % O O O o : #.9 $ 1 4 4 4 4 % N 9 O 4 4 4 1 O l ",
",.0 $ 3 4 4 4 4 4 4 4 % % O O o t q.x.Q # 4 4 4 4 4 4 4 4 4 O X . s $.> o o $ o o o # X . - 2.o.d % O 4 4 3 : V : O 4 4 4 4 o # ",
"~ ~ # O 4 4 4 4 4 4 4 % 4 4 O o 0 u.k.&.: 3 4 4 4 4 4 4 4 4 4 $ . > 5.o.u 0 t u l ! Q a u m 3.C H x : O 3 O 9 l # 4 4 4 4 2 O o ",
"t ,.> O 4 4 4 4 4 4 4 4 4 O X % Q x y :.0 O 4 4 4 4 4 4 4 4 4 O $ o H k.:.~ Q n ~ o.Q s s 5.x @ # s m : O O h 0 O 4 4 4 4 4 O O ",
"0 ;.: O 2 4 4 4 4 1 O O O o > Q x # @ V s O 3 4 4 4 4 4 4 4 4 4 O X 0 r.0 # # o # # O X o ! n o O : ~ s O > l % O 4 4 4 4 4 3 2 ",
"u 5.> $ 1 O 4 O O @ X o : a ,.N : X X y m # O 4 4 4 4 4 4 4 4 4 4 o % $.t X O O O O $ o t 7.5.> $ $ 9 [ t s t # 4 4 4 4 4 4 4 4 ",
", 5.x # O 3 3 $ o 9 N m ' ~ u # o O X 9 ' % O 4 4 4 4 4 4 4 4 4 4 O X l V O 3 4 4 $ % l ! y ' i $ 3 X 0 5.7.; O 4 4 4 4 4 4 4 4 ",
"# l r.g o 3 $ X 0 e.r.Q y % o O 3 3 o :  .: O 3 4 4 4 4 4 4 4 4 4 1 o 9 { % 3 O o : I ! : . h k o 3 $ X s q.i # O 4 4 4 4 4 4 4 "
};
